<?xml version="1.0" encoding="UTF-8"?>
<map version="1.10" tiledversion="1.11.2" orientation="orthogonal" renderorder="right-down" width="400" height="16" tilewidth="32" tileheight="32" infinite="0" nextlayerid="3" nextobjectid="147">
 <editorsettings>
  <export target="stage_7.json" format="json"/>
 </editorsettings>
 <tileset firstgid="1" name="bg_tileset" tilewidth="32" tileheight="32" tilecount="256" columns="16">
  <image source="../images/bg_tileset.png" trans="000000" width="512" height="512"/>
  <tile id="128">
   <properties>
    <property name="nonCollidable" type="bool" value="true"/>
   </properties>
  </tile>
 </tileset>
 <layer id="1" name="layer_1" width="400" height="16">
  <data encoding="csv">
0,0,0,0,0,0,0,0,0,0,0,0,0,0,0,0,0,0,0,0,0,0,0,0,0,0,0,0,0,0,0,0,0,0,0,0,0,0,0,0,0,0,0,0,0,0,0,0,0,0,0,0,0,0,0,0,0,0,0,0,0,0,0,0,0,0,0,0,0,0,0,0,0,0,0,0,0,0,0,0,0,0,0,0,0,0,0,0,0,0,0,0,0,0,0,0,0,0,0,0,0,0,0,0,0,0,0,0,0,0,0,0,0,0,0,0,0,0,0,0,0,0,0,0,0,0,0,0,0,0,0,0,0,0,0,0,0,0,0,0,0,0,0,0,0,0,0,0,0,0,0,0,0,0,0,0,0,0,0,0,0,0,0,0,0,0,0,0,0,0,0,0,0,0,0,0,0,0,0,0,0,0,0,0,0,0,0,0,0,0,0,0,0,0,0,0,0,0,0,0,0,0,0,0,0,0,0,0,0,0,0,0,0,0,0,0,0,0,0,0,0,0,0,0,0,0,0,0,0,0,0,0,0,0,0,0,0,0,0,0,0,0,0,0,0,0,0,0,0,0,0,0,0,0,0,0,0,0,0,0,0,0,0,0,0,0,0,0,0,0,0,0,0,0,0,0,0,0,0,0,0,0,0,0,0,0,0,0,0,0,0,0,0,0,0,0,0,0,0,0,0,0,0,0,0,0,0,0,0,0,0,0,0,0,0,0,0,0,0,0,0,0,0,0,0,0,0,0,0,0,0,0,0,0,0,0,0,0,0,0,0,0,0,0,0,0,0,0,0,0,0,0,0,0,0,0,0,0,0,0,0,0,0,0,0,0,0,0,0,0,0,0,0,0,0,0,0,0,0,0,0,0,0,0,0,0,0,0,0,0,0,0,0,0,0,0,0,0,0,0,
0,0,0,0,0,0,0,0,0,0,0,0,0,0,0,0,0,0,0,0,0,0,0,0,0,0,0,0,0,0,0,0,0,0,0,0,0,0,0,0,0,0,0,0,0,0,0,0,0,0,0,0,0,0,0,0,0,0,0,0,0,0,0,0,0,0,0,0,0,0,0,0,0,0,0,0,0,0,0,0,0,0,0,0,0,0,0,0,0,0,0,0,0,0,0,0,0,0,0,0,0,0,0,0,0,0,0,0,0,0,0,0,0,0,0,0,0,0,0,0,0,0,0,0,0,0,0,0,0,0,0,0,0,0,0,0,0,0,0,0,0,0,0,0,0,0,0,0,0,0,0,0,0,0,0,0,0,0,0,0,0,0,0,0,0,0,0,0,0,0,0,0,0,0,0,0,0,0,0,0,0,0,0,0,0,0,0,0,0,0,0,0,0,0,0,0,0,0,0,0,0,0,0,0,0,0,0,0,0,0,0,0,0,0,0,0,0,0,0,0,0,0,0,0,0,0,0,0,0,0,0,0,0,0,0,0,0,0,0,0,0,0,0,0,0,0,0,0,0,0,0,0,0,0,0,0,0,0,0,0,0,0,0,0,0,0,0,0,0,0,0,0,0,0,0,0,0,0,0,0,0,0,0,0,0,0,0,0,0,0,0,0,104,104,104,104,0,0,0,0,0,0,0,0,0,104,104,104,104,0,0,0,0,0,0,0,0,0,0,0,0,0,0,0,0,0,0,0,0,0,0,0,0,0,0,0,0,0,0,0,0,0,0,0,0,0,0,0,0,0,0,0,0,0,0,0,0,0,0,0,0,0,0,0,0,0,0,0,0,0,0,0,0,0,0,0,0,0,0,0,0,0,0,0,0,0,0,0,0,0,0,0,0,0,0,0,0,0,0,0,
0,0,0,0,0,0,0,0,0,0,0,0,0,0,0,0,0,0,0,0,0,0,0,0,0,0,0,0,0,0,0,0,0,0,0,0,0,0,0,0,0,0,0,0,0,0,0,0,0,0,0,0,0,0,0,0,0,0,0,0,0,0,0,0,0,0,0,0,0,0,0,0,0,0,0,0,0,0,0,0,0,0,0,0,0,0,0,0,0,0,0,0,0,0,0,0,0,0,0,0,0,0,0,0,0,0,0,0,0,0,0,0,0,0,0,0,0,0,0,0,0,0,0,0,0,0,0,0,0,0,0,0,0,0,0,0,0,0,0,0,0,0,0,0,0,0,0,0,0,0,0,0,0,0,0,0,0,0,0,0,0,0,0,0,0,0,0,0,0,0,0,0,0,0,0,0,0,0,0,0,0,0,0,0,0,0,0,0,0,0,0,0,0,0,0,0,0,0,0,0,0,104,104,104,0,0,0,0,0,0,0,0,0,0,0,0,0,0,104,104,104,0,0,0,0,0,0,0,0,0,0,0,0,0,0,0,0,0,0,0,0,0,0,0,0,0,0,0,0,0,0,0,0,0,0,0,0,0,0,0,0,0,104,104,104,104,104,104,104,104,104,104,104,0,0,0,0,0,0,0,0,0,0,0,0,0,0,0,0,0,0,0,104,103,103,104,104,104,104,104,104,104,0,0,0,104,104,103,104,104,0,0,0,0,0,0,0,0,0,104,104,104,104,104,104,104,104,0,0,0,0,0,0,0,0,0,0,0,0,0,0,0,0,0,0,0,0,0,0,0,0,0,0,0,0,0,0,0,0,0,0,0,0,0,0,0,0,0,0,0,0,0,0,0,0,0,0,0,0,0,0,0,0,0,0,0,0,0,0,0,0,0,0,0,0,0,0,0,0,0,
0,0,0,0,0,0,0,0,0,0,0,0,0,0,0,0,0,0,0,0,0,0,0,0,0,0,0,0,0,0,0,0,0,0,0,0,0,0,0,0,0,0,0,0,0,0,0,0,0,0,0,0,0,0,0,0,0,0,0,0,0,0,0,0,0,0,0,0,0,0,0,0,0,0,0,0,0,0,0,0,0,0,0,0,0,0,0,0,0,0,0,0,0,0,0,0,0,0,0,0,0,0,0,0,0,0,0,0,0,0,0,0,0,0,0,0,0,0,0,0,0,0,0,0,0,0,0,0,0,0,0,0,0,0,0,0,0,0,0,0,0,0,0,0,0,0,0,0,0,0,0,0,0,0,0,0,0,0,0,0,0,0,0,0,0,0,0,0,0,0,0,0,0,0,0,0,0,0,0,0,0,0,0,0,0,0,0,0,0,0,0,0,0,0,0,0,0,0,0,0,104,103,103,103,104,0,0,0,0,0,0,0,0,0,0,0,0,104,103,103,103,104,0,0,0,0,0,0,0,0,0,0,0,0,0,0,0,0,0,0,0,0,0,0,0,0,0,0,0,0,0,0,0,0,0,0,0,0,0,0,0,0,104,103,103,103,103,103,103,103,103,103,104,0,0,0,0,0,0,0,0,0,0,0,0,0,0,0,0,0,0,0,104,104,103,103,103,103,103,103,103,104,0,0,0,0,104,103,103,104,104,104,0,0,0,0,0,0,0,104,103,103,103,103,103,103,103,104,104,0,0,0,0,0,0,0,0,0,0,0,0,0,0,0,0,0,0,0,0,0,0,0,0,0,0,0,0,0,0,0,0,0,0,0,0,0,0,0,0,0,0,0,0,0,0,0,0,0,0,0,0,0,0,0,0,0,0,0,0,0,0,0,0,0,0,0,0,0,0,0,
0,0,0,0,0,0,0,0,0,0,0,0,0,0,0,0,0,0,0,0,0,0,0,0,0,0,0,0,0,0,0,0,0,0,0,0,0,0,0,0,0,0,0,0,0,0,0,0,0,0,0,0,0,0,0,0,0,0,0,0,0,0,0,0,0,0,0,0,0,0,0,0,0,0,0,0,0,0,0,0,0,0,0,0,0,0,0,0,0,0,0,0,0,0,0,0,0,0,0,0,0,0,0,0,0,0,0,0,0,0,0,0,0,0,0,0,0,0,0,0,0,0,0,0,0,0,0,0,0,0,0,0,0,0,0,0,0,0,0,0,0,0,0,0,0,0,0,0,0,0,0,0,0,0,0,0,0,0,0,0,0,0,0,0,0,0,0,0,0,0,0,0,0,0,0,0,0,0,0,0,0,0,0,0,0,0,0,0,0,0,0,0,0,0,0,0,0,0,0,0,104,103,103,103,104,0,0,0,0,0,0,0,0,0,0,0,0,104,103,103,103,104,0,0,0,0,0,0,0,0,0,0,0,0,0,0,0,0,0,0,0,0,0,0,0,0,0,0,0,0,0,0,0,0,0,0,0,0,0,0,0,0,104,103,103,103,103,103,103,103,103,103,104,0,0,0,0,0,0,0,0,0,0,104,104,104,104,104,0,0,0,0,0,104,104,104,104,104,103,103,103,104,0,0,0,0,104,104,103,103,103,104,104,0,0,0,0,0,0,0,104,104,104,104,104,104,104,104,104,0,0,0,0,0,0,0,0,0,0,0,0,0,0,0,0,0,0,0,0,0,0,0,0,0,0,0,0,0,0,0,0,0,0,0,0,0,0,0,0,0,0,0,0,0,0,0,0,0,0,0,0,0,0,0,0,0,0,0,0,0,0,0,0,0,0,0,0,0,0,0,
0,0,0,0,0,0,0,0,0,0,0,0,0,0,0,0,0,0,0,0,0,0,0,0,0,0,0,0,0,0,0,0,0,0,0,0,0,0,0,0,0,0,0,0,0,0,0,0,0,0,0,0,0,0,0,0,0,0,0,0,0,0,0,0,0,0,0,0,0,0,0,0,0,0,0,0,0,0,0,0,0,0,0,0,0,0,0,0,0,0,0,0,0,0,0,0,0,0,0,0,0,0,0,0,0,0,0,0,0,0,0,0,0,0,0,0,0,0,0,0,0,0,0,0,0,0,0,0,0,0,0,0,0,0,0,0,0,0,0,0,0,0,0,0,0,0,0,0,0,0,0,0,0,0,0,0,0,0,0,0,0,0,0,0,0,0,0,0,0,0,0,0,0,0,0,0,0,0,0,0,0,0,0,0,0,0,0,0,0,0,0,0,0,0,0,0,0,0,0,0,0,104,104,104,0,0,0,0,0,0,0,0,0,0,0,0,0,0,104,104,104,0,0,0,0,0,0,0,0,0,0,0,0,0,0,0,0,0,0,0,0,0,0,0,0,0,0,0,0,0,0,0,0,0,0,0,0,0,0,0,0,0,104,104,104,104,104,104,104,104,104,104,104,0,0,0,0,0,0,0,0,0,0,104,103,103,103,104,0,0,0,0,0,0,0,0,0,104,104,103,103,104,0,0,0,0,0,104,103,103,103,103,104,104,0,0,0,0,0,0,0,0,0,0,0,0,0,0,0,0,0,0,0,0,0,0,0,0,0,0,0,0,0,0,0,0,0,0,0,0,0,0,0,0,0,0,0,0,0,0,0,0,0,0,0,0,0,0,0,0,0,0,0,0,0,0,0,0,0,0,0,0,0,0,0,0,0,0,0,0,0,0,0,0,0,0,0,0,0,0,
0,0,0,0,0,0,0,0,0,0,0,0,0,0,0,0,0,0,0,0,0,0,0,0,0,0,0,0,0,0,0,0,0,0,0,0,0,0,0,0,0,0,0,0,0,0,0,0,0,0,0,0,0,0,0,0,0,0,0,0,0,0,0,0,0,0,0,0,0,0,0,0,0,0,0,0,0,0,0,0,0,0,0,0,0,0,0,0,0,0,0,0,0,0,0,0,0,0,0,0,0,0,0,0,0,0,0,0,0,0,0,0,0,0,0,0,0,0,0,0,0,0,0,0,0,0,0,0,0,0,0,0,0,0,0,0,0,0,0,0,0,0,0,0,0,0,0,0,0,0,0,0,0,0,0,0,0,0,0,0,0,0,0,0,0,0,0,0,0,0,0,0,0,0,0,0,0,0,0,0,0,0,0,0,0,0,0,0,0,0,0,0,0,0,0,0,0,0,0,0,0,0,0,0,0,0,0,0,0,104,104,104,0,0,0,0,0,0,0,0,0,0,0,0,0,0,0,0,0,0,0,0,0,0,0,0,0,0,0,0,0,0,0,0,0,0,0,0,104,0,0,0,0,0,0,0,0,0,0,0,0,0,0,0,0,0,0,0,0,0,0,0,0,0,0,0,0,0,0,0,0,0,104,104,103,103,104,104,0,0,0,0,0,0,0,0,0,0,104,103,103,104,0,0,0,0,0,104,104,103,103,103,103,104,0,0,0,0,0,0,0,0,0,0,0,0,0,0,0,0,0,0,0,0,0,0,0,0,0,0,0,0,0,0,0,0,0,0,0,0,0,0,0,0,0,0,0,0,0,0,0,0,0,0,0,0,0,0,0,0,0,0,0,0,0,0,0,0,0,0,0,0,0,0,0,0,0,0,0,0,0,0,0,0,0,0,0,0,0,0,
0,0,0,0,0,0,0,0,0,0,0,0,0,0,0,0,0,0,0,0,0,0,0,0,0,0,0,0,0,0,0,0,0,0,0,0,0,0,0,0,0,0,0,0,0,0,0,0,0,0,0,0,0,0,0,0,0,0,0,0,0,0,0,0,0,0,0,0,0,0,0,0,0,0,0,0,0,0,0,0,0,0,0,0,0,0,0,0,0,0,0,0,0,0,0,0,0,0,0,0,0,0,0,0,0,0,0,0,0,0,0,0,0,0,0,0,0,0,0,0,0,0,0,0,0,0,0,0,0,0,0,0,0,0,0,0,0,0,0,0,0,0,0,0,0,0,0,0,0,0,0,0,0,0,0,0,0,0,0,0,0,0,0,0,0,0,0,0,0,0,0,0,0,0,0,0,0,0,0,0,0,0,0,0,0,0,0,0,0,0,0,0,0,0,0,0,0,0,0,0,0,0,0,0,0,0,0,0,104,103,103,103,104,0,0,0,0,0,0,0,0,0,0,0,0,0,0,0,0,0,0,0,0,0,0,0,0,0,0,0,0,0,0,0,0,0,0,104,103,104,0,0,0,0,0,0,0,0,0,0,0,0,0,0,0,0,0,0,0,0,0,0,0,0,0,0,0,0,0,129,104,104,104,103,103,104,104,0,0,0,0,0,0,0,0,0,0,0,0,104,103,104,0,0,0,0,0,0,104,104,104,103,103,104,0,0,0,0,0,0,0,0,0,0,0,0,0,0,0,0,0,0,0,0,0,0,0,0,0,0,0,0,0,0,0,0,0,0,0,0,0,0,0,0,0,0,0,0,0,0,0,0,0,0,0,0,0,0,0,0,0,0,0,0,0,0,0,0,0,0,0,0,0,0,0,0,0,0,0,0,0,0,0,0,0,0,0,0,0,0,
0,0,0,0,0,0,0,0,0,0,0,0,0,0,0,0,0,0,0,0,0,0,0,0,0,0,0,0,0,0,0,0,0,0,0,0,0,0,0,0,0,0,0,0,0,0,0,0,0,0,0,0,0,0,0,0,0,0,0,0,0,0,0,0,0,0,0,0,0,0,0,0,0,0,0,0,0,0,0,0,0,0,0,0,0,0,0,0,0,0,0,0,0,0,0,0,0,0,0,0,0,0,0,0,0,0,0,0,0,0,0,0,0,0,0,0,0,0,0,0,0,0,0,0,0,0,0,0,0,0,0,0,0,0,0,0,0,0,0,0,0,0,0,0,0,0,0,0,0,0,0,0,0,0,0,0,0,0,0,0,0,0,0,0,0,0,0,0,0,0,0,0,0,0,0,0,0,0,0,0,0,0,0,0,0,0,0,0,0,0,0,0,0,0,0,0,0,0,0,0,0,0,0,0,0,0,0,0,104,103,103,103,104,0,0,0,0,0,0,0,0,0,0,0,0,0,0,0,0,0,0,0,0,0,0,0,0,0,0,0,0,0,0,0,0,0,0,0,104,0,0,0,0,0,0,0,0,0,0,0,0,0,0,0,0,0,0,0,0,0,0,0,0,0,0,0,0,0,0,104,104,103,103,103,104,104,0,0,0,0,0,0,0,0,0,0,0,0,0,0,104,104,0,0,0,0,0,0,0,0,104,103,103,104,0,0,0,0,0,0,104,104,104,104,104,104,0,129,0,0,0,0,0,0,0,0,0,0,0,0,0,0,0,0,0,0,0,0,0,0,0,0,0,0,0,0,0,0,0,0,0,0,0,0,0,0,0,0,0,0,0,0,0,0,0,0,0,0,0,0,0,0,0,0,0,0,0,0,0,0,0,0,0,0,0,0,0,0,0,0,
0,0,0,0,0,0,0,0,0,0,0,0,0,0,0,0,0,0,0,0,0,0,0,0,0,0,0,0,0,0,0,0,0,0,0,0,0,0,0,0,0,0,0,0,0,0,0,0,0,0,0,0,0,0,0,0,0,0,0,0,0,0,0,0,0,0,0,0,0,0,0,0,0,0,0,0,0,0,0,0,0,0,0,0,0,0,0,0,0,0,0,0,0,0,0,0,0,0,0,0,0,0,0,0,0,0,0,0,0,0,0,0,0,0,0,0,0,0,0,0,0,0,0,0,0,0,0,0,0,0,0,0,0,0,0,0,0,0,0,0,0,0,0,0,0,0,0,0,0,0,0,0,0,0,0,0,0,0,0,0,0,0,0,0,0,0,0,0,0,0,0,0,0,0,0,0,0,0,0,0,0,0,0,0,0,0,0,0,0,0,0,0,0,0,0,0,0,0,0,0,0,0,0,0,0,0,0,0,0,104,104,104,0,0,0,0,0,0,0,0,0,0,0,0,0,0,0,0,0,0,0,0,0,0,0,0,0,0,0,0,0,0,0,0,0,0,0,0,0,0,0,0,0,0,0,0,0,0,0,0,0,0,0,0,0,0,0,0,0,0,0,0,0,0,0,0,0,0,104,104,103,103,103,104,104,0,0,0,0,0,0,104,104,104,0,0,0,0,0,0,0,0,0,0,0,0,0,0,0,0,104,104,104,104,0,0,0,0,0,104,104,103,103,103,103,103,104,104,0,0,0,0,0,0,0,0,0,0,0,0,0,0,0,0,0,0,0,0,0,0,0,0,0,0,0,0,0,0,0,0,0,0,0,0,0,0,0,0,0,0,0,0,0,0,0,0,0,0,0,0,0,0,0,0,0,0,0,0,0,0,0,0,0,0,0,0,0,0,0,0,
0,0,0,0,0,0,0,0,0,0,0,0,0,0,0,0,0,0,0,0,0,0,0,0,0,0,0,0,0,0,0,0,0,0,0,0,0,0,0,0,0,0,0,0,0,0,0,0,0,0,0,0,0,0,0,0,0,0,0,0,0,0,0,0,0,0,0,0,0,0,0,0,0,0,0,0,0,0,0,0,0,0,0,0,0,0,0,0,0,0,0,0,0,0,0,0,0,0,0,0,0,0,0,0,0,0,0,0,0,0,0,0,0,0,0,0,0,0,0,0,0,0,0,0,0,0,0,0,0,0,0,0,0,0,0,0,0,0,0,0,0,0,0,0,0,0,0,0,0,0,0,0,0,0,0,0,0,0,0,0,0,0,0,0,0,0,0,0,0,0,0,0,0,0,0,0,0,0,0,0,0,0,0,0,0,0,0,0,0,0,0,0,0,0,0,0,0,0,0,0,0,104,104,104,0,0,0,0,0,0,0,0,0,0,0,0,0,0,0,0,0,0,0,0,0,0,0,0,0,0,0,0,0,0,0,0,0,0,0,0,0,0,0,0,0,0,0,0,0,0,0,0,0,0,0,0,0,0,0,0,0,0,0,0,0,0,0,0,0,0,0,0,0,0,0,0,0,0,104,103,103,103,104,104,0,0,0,0,0,0,104,103,103,104,104,0,0,0,0,0,0,0,0,0,0,0,0,0,0,0,0,104,104,0,0,0,0,0,104,104,103,103,103,103,103,103,103,104,0,0,0,0,0,0,0,0,0,0,0,0,0,0,0,0,0,0,0,0,0,0,0,0,0,0,0,0,0,0,0,0,0,0,0,0,0,0,0,0,0,0,0,0,0,0,0,0,0,0,0,0,0,0,0,0,0,0,0,0,0,0,0,0,0,0,0,0,0,0,0,0,
0,0,0,0,0,0,0,0,0,0,0,0,0,0,0,0,0,0,0,0,0,0,0,0,0,0,0,0,0,0,0,0,0,0,0,0,0,0,0,0,0,0,0,0,0,0,0,0,0,0,0,0,0,0,0,0,0,0,0,0,0,0,0,0,0,0,0,0,0,0,0,0,0,0,0,0,0,0,0,0,0,0,0,0,0,0,0,0,0,0,0,0,0,0,0,0,0,0,0,0,0,0,0,0,0,0,0,0,0,0,0,0,0,0,0,0,0,0,0,0,0,0,0,0,0,0,0,0,0,0,0,0,0,0,0,0,0,0,0,0,0,0,0,0,0,0,0,0,0,0,0,0,0,0,0,0,0,0,0,0,0,0,0,0,0,0,0,0,0,0,0,0,0,0,0,0,0,0,0,0,0,0,0,0,0,0,0,0,0,0,0,0,0,0,0,0,0,0,0,0,104,103,103,103,104,0,0,0,0,0,0,0,0,0,0,0,0,0,104,104,104,0,0,0,0,0,0,0,0,0,0,0,0,0,0,0,0,0,0,0,0,0,0,0,0,0,0,0,0,0,0,0,0,0,0,0,0,0,0,0,0,0,0,0,0,0,0,0,0,0,0,0,0,0,0,0,104,104,104,103,103,104,104,0,0,0,0,0,0,0,104,104,103,103,104,104,104,0,0,0,0,0,0,0,0,0,0,0,0,0,0,0,0,0,0,0,0,0,0,104,104,104,104,104,104,104,104,104,0,0,0,0,0,0,0,0,0,0,0,0,0,0,0,0,0,0,0,0,0,0,0,0,0,0,0,0,0,0,0,0,0,0,0,0,0,0,0,0,0,0,0,0,0,0,0,0,0,0,0,0,0,0,0,0,0,0,0,0,0,0,0,0,0,0,0,0,0,0,0,0,
0,0,0,0,0,0,0,0,0,0,0,0,0,0,0,0,0,0,0,0,0,0,0,0,0,0,0,0,0,0,0,0,0,0,0,0,0,0,0,0,0,0,0,0,0,0,0,0,0,0,0,0,0,0,0,0,0,0,0,0,0,0,0,0,0,0,0,0,0,0,0,0,0,0,0,0,0,0,0,0,0,0,0,0,0,0,0,0,0,0,0,0,0,0,0,0,0,0,0,0,0,0,0,0,0,0,0,0,0,0,0,0,0,0,0,0,0,0,0,0,0,0,0,0,0,0,0,0,0,0,0,0,0,0,0,0,0,0,0,0,0,0,0,0,0,0,0,0,0,0,0,0,0,0,0,0,0,0,0,0,0,0,0,0,0,0,0,0,0,0,0,0,0,0,0,0,0,0,0,0,0,0,0,0,0,0,0,0,0,0,0,0,0,0,0,0,0,0,0,0,104,103,103,103,104,0,0,0,0,0,0,0,0,0,0,0,0,104,103,103,103,104,0,0,0,0,0,0,0,0,0,0,0,0,0,0,0,0,0,0,0,0,0,0,0,0,0,0,0,0,0,0,0,0,0,0,0,0,0,0,0,0,0,0,0,0,0,0,0,0,0,0,0,0,0,0,104,103,103,103,104,104,0,0,0,0,0,0,0,0,0,104,104,103,103,103,104,104,104,104,104,104,104,104,104,104,0,0,0,0,0,0,0,0,0,0,0,0,0,0,0,0,0,0,0,0,0,0,0,0,0,0,0,0,0,0,0,0,0,0,0,0,0,0,0,0,0,0,0,0,0,0,0,0,0,0,0,0,0,0,0,0,0,0,0,0,0,0,0,0,0,0,0,0,0,0,0,0,0,0,0,0,0,0,0,0,0,0,0,0,0,0,0,0,0,0,0,0,0,0,
0,0,0,0,0,0,0,0,0,0,0,0,0,0,0,0,0,0,0,0,0,0,0,0,0,0,0,0,0,0,0,0,0,0,0,0,0,0,0,0,0,0,0,0,0,0,0,0,0,0,0,0,0,0,0,0,0,0,0,0,0,0,0,0,0,0,0,0,0,0,0,0,0,0,0,0,0,0,0,0,0,0,0,0,0,0,0,0,0,0,0,0,0,0,0,0,0,0,0,0,0,0,0,0,0,0,0,0,0,0,0,0,0,0,0,0,0,0,0,0,0,0,0,0,0,0,0,0,0,0,0,0,0,0,0,0,0,0,0,0,0,0,0,0,0,0,0,0,0,0,0,0,0,0,0,0,0,0,0,0,0,0,0,0,0,0,0,0,0,0,0,0,0,0,0,0,0,0,0,0,0,0,0,0,0,0,0,0,0,0,0,0,0,0,0,0,0,0,0,0,0,104,104,104,0,0,0,0,0,0,0,0,0,0,0,0,0,104,103,103,103,104,0,0,0,0,0,0,0,0,0,0,0,0,0,0,0,0,0,0,0,0,0,0,0,0,0,0,0,0,0,0,0,0,0,0,0,0,0,0,0,0,0,0,0,0,0,0,0,0,0,0,0,0,0,0,104,104,104,104,104,0,0,0,0,0,0,0,0,0,0,0,104,104,104,104,104,104,104,104,103,103,103,103,104,104,0,0,0,0,0,0,0,0,0,0,0,0,0,0,0,0,0,0,0,0,0,0,0,0,0,0,0,0,0,0,0,0,0,0,0,0,0,0,0,0,0,0,0,0,0,0,0,0,0,0,0,0,0,0,0,0,0,0,0,0,0,0,0,0,0,0,0,0,0,0,0,0,0,0,0,0,0,0,0,0,0,0,0,0,0,0,0,0,0,0,0,0,0,0,
0,0,0,0,0,0,0,0,0,0,0,0,0,0,0,0,0,0,0,0,0,0,0,0,0,0,0,0,0,0,0,0,0,0,0,0,0,0,0,0,0,0,0,0,0,0,0,0,0,0,0,0,0,0,0,0,0,0,0,0,0,0,0,0,0,0,0,0,0,0,0,0,0,0,0,0,0,0,0,0,0,0,0,0,0,0,0,0,0,0,0,0,0,0,0,0,0,0,0,0,0,0,0,0,0,0,0,0,0,0,0,0,0,0,0,0,0,0,0,0,0,0,0,0,0,0,0,0,0,0,0,0,0,0,0,0,0,0,0,0,0,0,0,0,0,0,0,0,0,0,0,0,0,0,0,0,0,0,0,0,0,0,129,0,0,0,0,0,0,0,0,0,0,0,0,0,0,0,0,0,0,0,0,0,0,0,0,0,0,0,0,0,0,0,0,0,0,0,0,0,0,0,0,0,0,0,0,0,0,0,0,0,0,0,0,0,0,0,104,104,104,0,0,0,0,0,0,0,0,0,0,0,0,0,0,0,0,0,0,0,0,0,0,0,0,0,0,0,0,0,0,0,0,0,0,0,0,0,0,0,0,0,0,0,0,0,0,0,0,104,104,104,0,0,0,0,0,0,0,0,0,0,0,0,0,0,0,0,0,0,0,0,0,0,0,0,0,0,0,104,104,104,104,104,104,0,0,0,0,0,0,0,0,0,0,0,0,0,0,0,0,0,0,0,0,0,0,0,0,0,0,0,0,0,0,0,0,0,0,0,0,0,0,0,0,0,0,0,0,0,0,0,0,0,0,0,0,0,0,0,0,0,0,0,0,0,0,0,0,0,0,0,0,0,0,0,0,0,0,0,0,0,0,0,0,0,0,0,0,0,0,0,0,0,0,0,0,0,0,0,
0,0,0,0,0,0,0,0,0,0,0,0,0,0,0,0,0,0,0,0,0,0,0,0,0,0,0,0,0,0,129,0,0,0,0,0,0,0,0,0,0,0,0,0,0,0,0,0,0,0,0,0,0,0,0,0,0,0,0,0,0,0,0,0,0,0,0,0,0,0,0,0,0,0,0,0,0,0,0,0,0,0,0,0,0,0,0,0,0,0,0,0,0,0,0,0,0,0,0,0,0,0,0,0,0,0,0,0,0,0,0,0,0,0,0,0,0,0,0,0,0,0,0,0,0,0,0,0,0,0,0,0,0,0,0,0,0,0,0,0,0,0,0,0,0,0,0,0,0,0,0,0,0,0,0,0,0,0,0,104,104,104,104,104,104,0,0,0,0,0,0,0,0,0,0,0,0,0,0,0,0,0,0,0,0,0,0,0,0,0,0,0,0,0,0,0,0,0,0,0,0,0,0,0,0,0,0,0,0,0,0,0,0,0,0,0,0,0,0,0,0,0,0,0,0,0,0,0,0,0,0,0,0,0,0,0,0,0,0,0,0,0,0,0,0,0,0,0,0,0,0,0,0,0,0,0,0,0,0,0,0,0,104,104,104,104,104,104,104,104,104,104,0,0,0,0,0,0,0,0,0,0,0,0,0,0,0,0,0,0,0,0,0,0,0,0,0,0,0,0,0,0,0,0,0,0,0,0,0,0,0,0,0,0,0,0,0,0,0,0,0,0,0,0,0,0,0,0,0,0,0,0,0,0,0,0,0,0,0,0,0,0,0,0,0,0,0,0,0,0,0,0,0,0,0,0,0,0,0,0,0,0,0,0,0,0,0,0,0,0,0,0,0,0,0,0,0,0,0,0,0,0,0,0,0,0,0,0,0,0,0,0,0,0,0,0,0,0,0,0
</data>
 </layer>
 <objectgroup id="2" name="object_1">
  <object id="90" name="enemy" type="enemy" x="10560" y="256" width="32" height="32">
   <properties>
    <property name="spawn_pos" value="right_middle"/>
    <property name="subtype" value="enemy_b7"/>
   </properties>
  </object>
  <object id="91" name="event" type="event" x="11840" y="0" width="32" height="32">
   <properties>
    <property name="subtype" value="scroll_stop"/>
   </properties>
  </object>
  <object id="92" name="spawner" type="spawner" x="8928" y="0" width="32" height="32">
   <properties>
    <property name="duration" value="30"/>
    <property name="interval" value="3"/>
    <property name="spawn_pos" value="right_middle"/>
    <property name="subtype" value="enemy_1"/>
    <property name="z" value="0"/>
   </properties>
  </object>
  <object id="93" name="spawner" type="spawner" x="8960" y="0" width="32" height="32">
   <properties>
    <property name="duration" value="20"/>
    <property name="interval" value="1"/>
    <property name="spawn_pos" value="right_random"/>
    <property name="subtype" value="enemy_9"/>
    <property name="z" value="0"/>
   </properties>
  </object>
  <object id="94" name="event" type="event" x="10464" y="0" width="32" height="32">
   <properties>
    <property name="subtype" value="bgm_fadeout"/>
   </properties>
  </object>
  <object id="95" name="event" type="event" x="10560" y="0" width="32" height="32">
   <properties>
    <property name="subtype" value="bgm_boss"/>
   </properties>
  </object>
  <object id="96" name="enemy" type="enemy" x="5152" y="224" width="32" height="32">
   <properties>
    <property name="spawn_pos" value="map"/>
    <property name="subtype" value="enemy_16"/>
   </properties>
  </object>
  <object id="97" name="enemy" type="enemy" x="5371" y="96" width="32" height="32">
   <properties>
    <property name="spawn_pos" value="map"/>
    <property name="subtype" value="enemy_16"/>
   </properties>
  </object>
  <object id="98" name="enemy" type="enemy" x="5504" y="352" width="32" height="32">
   <properties>
    <property name="spawn_pos" value="map"/>
    <property name="subtype" value="enemy_16"/>
   </properties>
  </object>
  <object id="99" name="enemy" type="enemy" x="5632" y="224" width="32" height="32">
   <properties>
    <property name="spawn_pos" value="map"/>
    <property name="subtype" value="enemy_16"/>
   </properties>
  </object>
  <object id="102" name="enemy" type="enemy" x="5824" y="96" width="32" height="32">
   <properties>
    <property name="spawn_pos" value="map"/>
    <property name="subtype" value="enemy_16"/>
   </properties>
  </object>
  <object id="103" name="enemy" type="enemy" x="5952" y="384" width="32" height="32">
   <properties>
    <property name="spawn_pos" value="map"/>
    <property name="subtype" value="enemy_16"/>
   </properties>
  </object>
  <object id="104" name="enemy" type="enemy" x="6080" y="224" width="32" height="32">
   <properties>
    <property name="spawn_pos" value="map"/>
    <property name="subtype" value="enemy_16"/>
   </properties>
  </object>
  <object id="105" name="spawner" type="spawner" x="6304" y="0" width="32" height="32">
   <properties>
    <property name="duration" value="30"/>
    <property name="interval" value="3"/>
    <property name="spawn_pos" value="right_middle"/>
    <property name="subtype" value="enemy_1"/>
    <property name="z" value="0"/>
   </properties>
  </object>
  <object id="106" name="spawner" type="spawner" x="6336" y="0" width="32" height="32">
   <properties>
    <property name="duration" value="20"/>
    <property name="interval" value="1"/>
    <property name="spawn_pos" value="right_random"/>
    <property name="subtype" value="enemy_9"/>
    <property name="z" value="0"/>
   </properties>
  </object>
  <object id="107" name="enemy" type="enemy" x="7296" y="224" width="32" height="32">
   <properties>
    <property name="spawn_pos" value="map"/>
    <property name="subtype" value="enemy_16"/>
   </properties>
  </object>
  <object id="108" name="enemy" type="enemy" x="7584" y="128" width="32" height="32">
   <properties>
    <property name="spawn_pos" value="map"/>
    <property name="subtype" value="enemy_16"/>
   </properties>
  </object>
  <object id="109" name="enemy" type="enemy" x="7616" y="352" width="32" height="32">
   <properties>
    <property name="spawn_pos" value="map"/>
    <property name="subtype" value="enemy_16"/>
   </properties>
  </object>
  <object id="110" name="enemy" type="enemy" x="7808" y="224" width="32" height="32">
   <properties>
    <property name="spawn_pos" value="map"/>
    <property name="subtype" value="enemy_16"/>
   </properties>
  </object>
  <object id="111" name="enemy" type="enemy" x="8160" y="96" width="32" height="32">
   <properties>
    <property name="spawn_pos" value="map"/>
    <property name="subtype" value="enemy_16"/>
   </properties>
  </object>
  <object id="112" name="enemy" type="enemy" x="8160" y="384" width="32" height="32">
   <properties>
    <property name="spawn_pos" value="map"/>
    <property name="subtype" value="enemy_16"/>
   </properties>
  </object>
  <object id="113" name="enemy" type="enemy" x="960" y="192" width="32" height="32">
   <properties>
    <property name="spawn_pos" value="map"/>
    <property name="subtype" value="enemy_24"/>
   </properties>
  </object>
  <object id="114" name="enemy" type="enemy" x="1248" y="128" width="32" height="32">
   <properties>
    <property name="spawn_pos" value="map"/>
    <property name="subtype" value="enemy_24"/>
   </properties>
  </object>
  <object id="115" name="enemy" type="enemy" x="1248" y="352" width="32" height="32">
   <properties>
    <property name="spawn_pos" value="map"/>
    <property name="subtype" value="enemy_24"/>
   </properties>
  </object>
  <object id="116" name="enemy" type="enemy" x="1568" y="416" width="32" height="32">
   <properties>
    <property name="spawn_pos" value="map"/>
    <property name="subtype" value="enemy_24"/>
   </properties>
  </object>
  <object id="117" name="enemy" type="enemy" x="1600" y="224" width="32" height="32">
   <properties>
    <property name="spawn_pos" value="map"/>
    <property name="subtype" value="enemy_24"/>
   </properties>
  </object>
  <object id="118" name="enemy" type="enemy" x="1568" y="64" width="32" height="32">
   <properties>
    <property name="spawn_pos" value="map"/>
    <property name="subtype" value="enemy_24"/>
   </properties>
  </object>
  <object id="119" name="enemy" type="enemy" x="1920" y="160" width="32" height="32">
   <properties>
    <property name="spawn_pos" value="map"/>
    <property name="subtype" value="enemy_24"/>
   </properties>
  </object>
  <object id="120" name="enemy" type="enemy" x="1920" y="320" width="32" height="32">
   <properties>
    <property name="spawn_pos" value="map"/>
    <property name="subtype" value="enemy_24"/>
   </properties>
  </object>
  <object id="121" name="enemy" type="enemy" x="2080" y="160" width="32" height="32">
   <properties>
    <property name="spawn_pos" value="map"/>
    <property name="subtype" value="enemy_24"/>
   </properties>
  </object>
  <object id="122" name="enemy" type="enemy" x="2080" y="320" width="32" height="32">
   <properties>
    <property name="spawn_pos" value="map"/>
    <property name="subtype" value="enemy_24"/>
   </properties>
  </object>
  <object id="123" name="enemy" type="enemy" x="2240" y="416" width="32" height="32">
   <properties>
    <property name="spawn_pos" value="map"/>
    <property name="subtype" value="enemy_24"/>
   </properties>
  </object>
  <object id="124" name="enemy" type="enemy" x="2400" y="320" width="32" height="32">
   <properties>
    <property name="spawn_pos" value="map"/>
    <property name="subtype" value="enemy_24"/>
   </properties>
  </object>
  <object id="125" name="enemy" type="enemy" x="2528" y="224" width="32" height="32">
   <properties>
    <property name="spawn_pos" value="map"/>
    <property name="subtype" value="enemy_24"/>
   </properties>
  </object>
  <object id="126" name="enemy" type="enemy" x="2688" y="128" width="32" height="32">
   <properties>
    <property name="spawn_pos" value="map"/>
    <property name="subtype" value="enemy_24"/>
   </properties>
  </object>
  <object id="127" name="enemy" type="enemy" x="2848" y="32" width="32" height="32">
   <properties>
    <property name="spawn_pos" value="map"/>
    <property name="subtype" value="enemy_24"/>
   </properties>
  </object>
  <object id="128" name="enemy" type="enemy" x="2976" y="128" width="32" height="32">
   <properties>
    <property name="spawn_pos" value="map"/>
    <property name="subtype" value="enemy_24"/>
   </properties>
  </object>
  <object id="129" name="enemy" type="enemy" x="3072" y="224" width="32" height="32">
   <properties>
    <property name="spawn_pos" value="map"/>
    <property name="subtype" value="enemy_24"/>
   </properties>
  </object>
  <object id="130" name="enemy" type="enemy" x="3168" y="320" width="32" height="32">
   <properties>
    <property name="spawn_pos" value="map"/>
    <property name="subtype" value="enemy_24"/>
   </properties>
  </object>
  <object id="131" name="enemy" type="enemy" x="3264" y="416" width="32" height="32">
   <properties>
    <property name="spawn_pos" value="map"/>
    <property name="subtype" value="enemy_24"/>
   </properties>
  </object>
  <object id="132" name="enemy" type="enemy" x="4416" y="64" width="32" height="32">
   <properties>
    <property name="spawn_pos" value="map"/>
    <property name="subtype" value="enemy_24"/>
   </properties>
  </object>
  <object id="133" name="enemy" type="enemy" x="4576" y="64" width="32" height="32">
   <properties>
    <property name="spawn_pos" value="map"/>
    <property name="subtype" value="enemy_24"/>
   </properties>
  </object>
  <object id="134" name="enemy" type="enemy" x="4416" y="224" width="32" height="32">
   <properties>
    <property name="spawn_pos" value="map"/>
    <property name="subtype" value="enemy_24"/>
   </properties>
  </object>
  <object id="135" name="enemy" type="enemy" x="4576" y="224" width="32" height="32">
   <properties>
    <property name="spawn_pos" value="map"/>
    <property name="subtype" value="enemy_24"/>
   </properties>
  </object>
  <object id="136" name="enemy" type="enemy" x="4416" y="384" width="32" height="32">
   <properties>
    <property name="spawn_pos" value="map"/>
    <property name="subtype" value="enemy_24"/>
   </properties>
  </object>
  <object id="137" name="enemy" type="enemy" x="4576" y="384" width="32" height="32">
   <properties>
    <property name="spawn_pos" value="map"/>
    <property name="subtype" value="enemy_24"/>
   </properties>
  </object>
  <object id="138" name="enemy" type="enemy" x="4736" y="384" width="32" height="32">
   <properties>
    <property name="spawn_pos" value="map"/>
    <property name="subtype" value="enemy_24"/>
   </properties>
  </object>
  <object id="139" name="enemy" type="enemy" x="4736" y="224" width="32" height="32">
   <properties>
    <property name="spawn_pos" value="map"/>
    <property name="subtype" value="enemy_24"/>
   </properties>
  </object>
  <object id="140" name="enemy" type="enemy" x="4736" y="64" width="32" height="32">
   <properties>
    <property name="spawn_pos" value="map"/>
    <property name="subtype" value="enemy_24"/>
   </properties>
  </object>
  <object id="141" name="enemy" type="enemy" x="3424" y="256" width="32" height="32">
   <properties>
    <property name="spawn_pos" value="map"/>
    <property name="subtype" value="enemy_24"/>
   </properties>
  </object>
  <object id="142" name="enemy" type="enemy" x="3712" y="128" width="32" height="32">
   <properties>
    <property name="spawn_pos" value="map"/>
    <property name="subtype" value="enemy_24"/>
   </properties>
  </object>
  <object id="143" name="enemy" type="enemy" x="3968" y="384" width="32" height="32">
   <properties>
    <property name="spawn_pos" value="map"/>
    <property name="subtype" value="enemy_24"/>
   </properties>
  </object>
  <object id="144" name="enemy" type="enemy" x="4192" y="256" width="32" height="32">
   <properties>
    <property name="spawn_pos" value="map"/>
    <property name="subtype" value="enemy_24"/>
   </properties>
  </object>
  <object id="145" name="spawner" type="spawner" x="3424" y="0" width="32" height="32">
   <properties>
    <property name="duration" value="30"/>
    <property name="interval" value="3"/>
    <property name="spawn_pos" value="right_middle"/>
    <property name="subtype" value="enemy_1"/>
    <property name="z" value="0"/>
   </properties>
  </object>
  <object id="146" name="spawner" type="spawner" x="3360" y="0" width="32" height="32">
   <properties>
    <property name="duration" value="20"/>
    <property name="interval" value="3"/>
    <property name="spawn_pos" value="right_random"/>
    <property name="subtype" value="enemy_4"/>
    <property name="z" value="0"/>
   </properties>
  </object>
 </objectgroup>
</map>
