<?xml version="1.0" encoding="UTF-8"?>
<map version="1.10" tiledversion="1.11.2" orientation="orthogonal" renderorder="right-down" width="400" height="16" tilewidth="32" tileheight="32" infinite="0" nextlayerid="3" nextobjectid="123">
 <editorsettings>
  <export target="stage_1.json" format="json"/>
 </editorsettings>
 <tileset firstgid="1" name="bg_tileset" tilewidth="32" tileheight="32" tilecount="256" columns="16">
  <image source="../images/bg_tileset.png" trans="000000" width="512" height="512"/>
  <tile id="9">
   <properties>
    <property name="nonCollidable" type="bool" value="true"/>
   </properties>
  </tile>
  <tile id="10">
   <properties>
    <property name="nonCollidable" type="bool" value="true"/>
   </properties>
  </tile>
  <tile id="11">
   <properties>
    <property name="nonCollidable" type="bool" value="true"/>
   </properties>
  </tile>
  <tile id="12">
   <properties>
    <property name="nonCollidable" type="bool" value="true"/>
   </properties>
  </tile>
  <tile id="13">
   <properties>
    <property name="nonCollidable" type="bool" value="true"/>
   </properties>
  </tile>
  <tile id="128">
   <properties>
    <property name="nonCollidable" type="bool" value="true"/>
   </properties>
  </tile>
 </tileset>
 <layer id="1" name="layer_1" width="400" height="16">
  <data encoding="csv">
0,0,0,0,0,0,0,0,0,0,0,0,0,0,0,0,0,0,0,0,0,0,0,0,0,0,0,0,0,0,0,0,0,0,0,0,0,0,0,0,0,0,0,0,0,0,0,0,0,0,0,0,0,0,0,0,0,0,0,0,0,0,0,0,0,0,0,0,0,0,0,0,0,0,0,0,0,0,0,0,0,0,0,0,0,0,0,0,8,7,6,4,4,4,5,5,5,6,7,7,8,14,0,0,0,0,0,0,0,0,0,0,0,0,0,0,0,0,0,0,0,0,0,0,0,0,0,0,0,0,0,0,0,0,0,0,0,0,0,0,0,0,0,0,0,0,0,0,0,0,0,0,0,0,0,0,0,0,0,0,0,0,0,0,0,0,0,0,0,0,0,0,0,0,0,0,0,0,0,0,0,0,0,0,0,0,0,0,0,0,0,0,0,0,0,0,0,0,0,0,0,0,0,0,0,0,0,0,0,0,0,0,0,0,0,13,8,7,6,6,7,8,0,0,0,0,0,0,0,0,0,0,0,0,0,0,0,13,8,8,7,8,8,8,8,8,8,8,7,8,8,8,8,8,8,7,6,7,8,8,14,0,0,0,0,0,0,0,0,0,0,0,0,0,0,0,0,0,0,0,0,0,0,0,0,0,0,0,0,0,0,0,0,0,0,0,0,0,0,0,13,8,8,8,8,7,7,7,6,6,7,7,7,7,7,7,7,7,7,7,7,6,6,7,7,7,7,7,7,7,7,8,8,8,8,8,14,0,0,0,0,0,13,8,8,8,8,8,7,7,7,7,7,7,7,7,7,7,7,7,6,6,6,6,6,6,6,7,7,8,8,8,8,14,0,0,0,0,0,0,0,0,0,0,0,0,0,0,0,0,0,0,0,0,0,0,0,0,8,8,
0,0,0,0,0,0,0,0,0,0,0,0,0,0,0,0,0,0,0,0,0,0,0,0,0,0,0,0,0,0,0,0,0,0,0,0,0,0,0,0,0,0,0,0,0,0,0,0,0,0,0,0,0,0,0,0,0,0,0,0,0,0,0,0,11,8,12,0,0,0,0,0,0,0,0,0,0,0,0,0,0,0,0,0,0,0,0,0,0,8,7,6,4,4,5,5,6,7,7,8,14,0,0,0,0,0,0,0,0,0,0,0,0,0,0,0,0,0,0,0,0,0,0,0,0,0,0,0,0,0,0,0,0,0,0,0,0,0,0,0,0,0,0,0,0,0,0,0,0,0,0,0,0,0,0,0,0,0,0,0,0,0,0,0,0,0,0,0,0,0,0,0,0,0,0,0,0,0,0,0,0,0,0,0,0,0,0,0,0,0,0,0,0,0,0,0,0,0,0,0,0,0,0,0,0,0,0,0,0,0,0,0,0,0,0,0,8,7,6,6,7,8,0,0,0,0,0,0,0,0,0,0,0,0,0,0,0,0,13,8,8,8,14,0,0,0,13,8,8,8,14,0,0,13,8,8,7,8,8,14,0,0,0,0,0,0,0,0,0,0,0,0,0,0,0,0,0,0,0,0,0,0,0,0,0,0,0,0,0,0,0,0,0,0,0,0,0,0,0,0,0,0,0,13,8,8,8,7,6,6,7,8,8,8,8,8,8,8,8,8,7,6,6,7,8,8,8,8,8,8,8,8,14,0,0,0,0,0,0,0,0,0,0,0,0,0,13,8,8,8,8,8,8,8,8,8,8,8,8,7,7,7,7,7,6,7,7,8,8,8,14,0,0,0,0,0,0,0,0,0,0,0,0,0,0,0,0,0,0,0,0,0,0,0,0,0,0,11,8,7,
0,0,0,0,0,0,0,0,0,0,0,0,0,0,0,0,0,0,0,0,0,0,0,0,0,0,0,0,0,0,0,0,0,0,0,0,0,0,0,0,0,0,0,0,0,0,0,0,0,0,0,0,0,0,0,0,0,0,0,0,0,0,0,0,8,9,8,0,0,0,0,0,0,0,0,0,0,0,0,0,0,0,0,0,0,0,0,0,0,0,8,7,6,6,5,6,6,7,8,14,0,0,0,0,0,0,0,0,0,0,0,0,0,0,0,0,0,0,0,0,0,0,0,0,0,0,0,0,0,0,0,0,0,0,0,0,0,0,0,0,0,0,0,0,0,0,0,0,0,0,0,0,0,0,0,0,0,0,0,0,0,0,0,0,0,0,0,0,0,0,0,0,0,0,0,0,0,0,0,0,0,0,0,0,0,0,0,0,0,0,0,0,0,0,0,0,0,0,0,0,0,0,0,0,0,0,0,0,0,0,0,0,0,0,0,0,0,8,7,6,7,8,0,0,0,0,0,0,0,0,0,0,0,0,0,0,0,0,0,0,0,0,0,0,0,0,0,0,0,0,0,0,0,0,0,8,8,8,14,0,0,0,0,0,0,0,0,0,0,0,0,0,0,0,0,0,0,0,0,0,0,0,0,0,0,0,0,0,0,0,0,0,0,0,0,0,0,0,0,0,0,0,0,0,0,13,8,8,7,7,8,8,14,0,0,0,0,0,13,8,8,7,7,8,8,14,0,0,0,0,0,0,0,0,0,0,0,0,0,0,0,0,0,0,0,0,0,0,0,0,0,0,0,0,0,0,0,0,13,8,8,8,8,8,7,8,8,8,14,0,0,0,0,0,0,0,0,0,0,0,0,0,0,0,0,0,0,0,0,0,0,0,0,0,0,0,0,8,8,7,
0,0,0,0,0,0,0,0,0,0,0,0,0,0,0,0,0,0,0,0,0,0,0,0,0,0,0,0,0,0,0,0,0,0,0,0,0,0,0,0,0,0,0,0,0,0,0,0,0,0,0,0,0,0,0,0,0,0,0,0,0,0,0,0,13,8,14,0,0,0,0,0,0,0,0,0,0,0,0,0,0,0,0,0,0,0,0,0,0,0,0,8,7,6,6,7,7,8,14,0,0,0,0,0,0,0,0,0,0,0,0,0,0,0,0,0,0,0,0,0,0,0,0,0,0,0,0,0,0,0,0,0,0,0,0,0,0,0,0,0,0,0,0,0,0,0,0,0,0,0,0,0,0,0,0,0,0,0,0,0,0,0,0,0,0,0,0,0,0,0,0,0,0,0,0,0,0,0,0,0,0,0,0,0,0,0,0,0,0,0,0,0,0,0,0,0,0,0,0,0,0,0,0,0,0,0,0,0,0,0,0,0,0,0,0,0,0,0,8,7,7,8,0,0,0,0,0,0,0,0,0,0,0,0,0,0,0,0,0,0,0,0,0,0,0,0,0,0,0,0,0,0,0,0,0,0,0,0,0,0,0,0,0,0,0,0,0,0,0,0,0,11,8,12,0,0,0,0,0,0,0,0,0,0,0,0,0,0,0,0,0,0,0,0,0,0,0,0,0,0,0,0,0,0,0,0,13,8,8,8,8,14,0,0,0,0,0,0,0,13,8,8,8,8,14,0,0,0,0,0,0,0,0,0,0,0,0,0,0,0,0,0,0,0,0,0,0,0,0,0,0,0,0,0,0,0,0,0,0,0,0,0,13,8,8,8,14,0,0,0,0,0,0,0,0,0,0,0,0,0,0,0,0,0,0,0,0,0,0,0,0,0,0,0,0,0,11,8,7,7,
0,0,0,0,0,0,0,0,0,0,0,0,0,0,0,0,0,0,0,0,0,0,0,0,0,0,0,0,0,0,0,0,0,0,0,0,0,0,0,0,0,0,0,0,0,0,0,0,0,0,0,0,0,0,0,0,0,0,0,0,0,0,0,0,0,0,0,0,0,0,0,0,0,0,0,0,0,0,0,0,0,0,0,0,0,0,0,0,0,0,0,0,8,7,7,7,8,14,0,0,0,0,0,0,0,0,0,0,0,0,0,0,0,0,0,0,0,0,0,0,0,0,0,0,0,0,0,0,0,0,0,0,0,0,0,0,0,0,0,0,0,0,0,0,0,0,0,0,0,0,0,0,0,0,0,0,0,0,0,0,0,0,0,0,0,0,0,0,0,0,0,0,0,0,0,0,0,0,0,0,0,0,0,0,0,0,0,0,0,0,0,0,0,0,0,0,0,0,0,0,0,0,0,0,0,0,0,0,0,0,0,0,0,0,0,0,0,0,0,8,7,8,0,0,0,0,0,0,0,0,0,0,0,0,0,0,0,0,0,0,0,0,0,0,0,0,0,0,0,0,0,0,0,0,0,0,0,0,0,0,0,0,0,0,0,0,0,0,0,0,11,8,7,8,12,0,0,0,0,0,0,0,0,0,0,0,0,0,0,0,0,0,0,0,0,0,0,0,0,0,0,0,0,0,0,0,0,0,0,0,0,0,0,0,0,0,0,0,0,0,0,0,0,0,0,0,0,0,0,0,0,0,0,0,0,0,0,0,0,0,0,0,0,0,0,0,0,0,0,0,0,0,0,0,0,0,0,0,0,0,0,0,0,0,0,0,0,0,0,0,0,0,0,0,0,0,0,0,0,0,0,0,0,0,0,0,0,0,0,0,0,0,0,0,0,0,8,8,7,7,
0,0,0,0,0,0,0,0,0,0,0,0,0,0,0,0,0,0,0,0,0,0,0,0,0,0,0,0,0,0,0,0,0,0,0,0,0,0,0,0,0,0,0,0,0,0,0,0,0,0,0,0,0,0,0,0,0,0,0,0,0,0,0,0,0,0,0,0,0,0,0,0,0,0,0,0,0,0,0,0,0,0,0,0,0,0,0,0,0,0,0,0,0,8,8,8,14,0,0,0,0,0,0,0,0,0,0,0,0,0,0,0,0,0,0,0,0,0,0,0,0,0,0,0,0,0,0,0,0,0,0,0,0,0,0,0,0,0,0,0,0,0,0,0,0,0,0,0,0,0,0,0,0,0,0,0,0,0,0,0,0,0,0,0,0,0,0,0,0,0,0,0,0,0,0,0,0,0,0,0,0,0,0,0,0,0,0,0,0,0,0,0,0,0,0,0,0,0,0,0,0,0,0,0,0,0,0,0,0,0,0,0,0,0,0,0,0,0,0,0,8,14,0,0,0,11,8,12,0,0,0,0,0,0,0,0,0,0,0,0,0,0,0,0,0,0,0,0,0,0,0,0,0,0,0,0,0,0,0,0,0,0,0,0,0,0,0,0,0,129,8,7,7,8,8,12,0,0,0,0,0,0,0,0,0,0,0,0,0,0,0,0,0,0,0,0,0,0,0,0,0,0,0,0,0,0,0,0,0,0,0,0,0,0,0,0,0,0,0,0,0,0,0,0,0,0,0,0,0,0,0,0,0,0,0,0,0,0,0,0,0,0,0,0,0,0,0,0,0,0,0,0,0,0,0,0,0,0,0,0,0,0,0,0,0,0,0,0,0,0,0,0,0,0,0,0,0,0,0,0,0,0,0,0,0,0,0,0,0,0,0,0,0,0,0,0,8,7,7,7,
0,0,0,0,0,0,0,0,0,0,0,0,0,0,0,0,0,0,0,0,0,0,0,0,0,0,0,0,0,0,0,0,0,0,0,0,0,0,0,0,0,0,0,0,0,0,0,0,0,0,0,0,0,0,0,0,0,0,0,0,0,0,0,0,0,0,0,0,0,0,0,0,0,0,0,0,0,0,0,0,0,0,0,0,0,0,0,0,0,0,0,0,0,0,0,0,0,0,0,0,0,0,0,0,0,0,0,0,0,0,0,0,0,0,0,0,0,0,0,0,0,0,0,0,0,0,0,0,0,0,0,0,0,0,0,0,0,0,0,0,0,0,0,0,0,0,0,0,0,0,0,0,0,0,0,0,0,0,0,0,0,0,0,0,0,0,0,0,0,0,0,0,0,0,0,0,0,0,0,0,0,0,0,0,0,0,0,0,0,0,0,0,0,0,0,0,0,0,0,0,0,0,0,0,0,0,0,0,0,0,0,0,0,0,0,0,0,0,0,0,0,0,0,0,0,8,8,8,0,0,0,0,0,0,0,0,0,0,0,0,0,0,0,0,0,0,0,0,0,0,0,0,0,0,0,0,0,0,0,0,0,0,0,0,0,0,0,0,0,8,8,7,7,7,8,8,0,0,0,0,0,0,0,0,0,0,0,0,0,0,0,0,0,0,0,0,0,0,0,0,0,0,0,0,0,0,0,0,0,0,0,0,0,0,0,0,0,0,0,0,0,0,0,0,0,0,0,0,0,0,0,0,0,0,0,0,0,0,0,0,0,0,0,0,0,0,0,0,0,0,0,0,0,0,0,0,0,0,0,0,0,0,0,0,0,0,0,0,0,0,0,0,0,0,0,0,0,0,0,0,0,0,0,0,0,0,0,0,0,0,0,0,0,0,0,0,8,7,7,7,
0,0,0,0,0,0,0,0,0,0,0,0,0,0,0,0,0,0,0,0,0,0,0,0,0,0,0,0,0,0,0,0,0,0,0,0,0,0,0,0,0,0,0,0,0,0,0,0,0,0,0,0,0,0,0,0,0,0,0,0,0,0,0,0,0,0,0,0,0,0,0,0,0,0,0,0,0,0,0,0,0,0,0,0,0,0,0,0,0,0,0,0,0,0,0,0,0,0,0,0,0,0,0,0,0,0,0,0,0,0,0,0,0,0,0,0,0,0,0,0,0,0,0,0,0,0,0,0,0,0,0,0,0,0,0,0,0,0,0,0,0,0,0,0,0,0,0,0,0,0,0,0,0,0,0,0,0,0,0,0,0,0,0,0,0,0,0,11,8,8,8,8,12,0,0,0,0,0,0,0,0,0,0,0,0,0,0,0,0,0,0,0,0,0,0,0,0,0,0,0,0,0,0,0,0,0,0,0,0,0,0,0,0,0,0,0,0,0,0,0,0,0,0,0,0,8,7,8,0,0,0,0,0,0,0,0,0,0,0,0,0,0,0,0,0,0,0,0,0,0,0,0,0,0,0,0,0,0,0,0,0,0,0,0,0,0,0,0,11,8,7,7,7,7,7,8,10,0,0,0,0,0,0,0,0,0,0,0,0,0,0,0,0,0,0,0,0,0,0,0,0,0,0,0,0,0,0,0,0,0,0,0,0,0,0,0,0,0,0,0,0,0,0,0,0,0,0,0,0,0,0,0,0,0,0,0,0,0,0,0,0,0,0,0,0,0,0,0,0,0,0,0,0,0,0,0,0,0,0,0,0,0,0,0,0,10,10,10,10,10,0,0,0,0,0,0,0,0,0,0,0,0,0,0,0,0,0,0,0,0,0,0,0,0,0,8,8,7,7,7,
0,0,0,0,0,0,0,0,0,0,0,0,0,0,0,0,0,0,0,0,0,0,0,0,0,0,0,0,0,0,0,0,0,0,0,0,0,0,0,0,0,0,0,0,0,0,0,0,0,0,0,0,0,0,0,0,0,0,0,0,0,0,0,0,0,0,0,0,0,0,0,0,0,0,0,0,0,0,0,0,0,0,0,0,0,0,0,0,0,0,0,0,0,0,0,0,0,0,0,0,0,0,0,0,0,0,0,0,0,0,0,0,0,0,0,0,0,0,0,0,0,0,0,0,0,0,0,0,0,0,0,0,0,0,0,0,0,0,0,0,0,0,0,0,0,0,0,0,0,0,0,0,0,0,0,0,0,0,0,0,0,0,0,0,0,0,11,8,7,7,7,7,8,12,0,0,0,0,0,0,0,0,0,0,0,0,0,0,0,0,0,0,0,11,8,8,8,8,8,12,0,0,0,0,0,0,0,0,0,0,0,0,0,0,0,0,0,0,0,0,0,0,0,0,11,8,7,8,12,0,0,0,0,0,0,0,0,0,0,0,0,0,0,0,0,0,0,0,0,0,0,0,0,0,0,0,0,0,0,0,0,11,8,8,8,12,0,0,8,7,7,7,6,7,7,8,8,10,0,0,0,0,0,0,0,0,0,0,0,0,0,0,0,0,0,0,0,0,0,0,0,0,0,0,0,0,0,0,0,0,0,0,0,0,0,0,0,0,0,0,0,0,0,0,0,0,0,0,0,0,0,0,0,0,0,0,0,0,0,0,0,0,0,0,0,0,0,0,0,0,0,0,0,0,0,0,0,0,0,0,0,0,0,11,8,8,8,8,8,8,8,0,0,0,0,0,0,0,0,0,0,0,0,0,0,0,0,0,0,0,0,0,0,0,0,8,7,7,7,6,
0,0,0,0,0,0,0,0,0,0,0,0,0,0,0,0,0,0,0,0,0,0,0,0,0,0,0,0,0,0,0,0,0,0,0,0,0,0,0,0,0,0,0,0,0,0,0,0,0,0,0,0,0,0,0,0,0,0,0,0,0,0,0,0,0,0,0,0,0,0,0,0,0,0,0,0,0,0,0,0,0,0,0,0,0,0,0,0,0,0,0,0,0,0,0,0,0,0,0,0,0,0,0,0,0,0,0,0,0,0,0,0,0,0,0,0,0,0,0,0,0,0,0,0,0,0,0,0,0,0,0,0,0,0,0,0,0,0,0,0,0,0,0,0,0,0,0,0,0,0,0,0,0,0,0,0,0,0,0,0,0,0,0,0,0,11,8,7,7,6,6,7,7,8,12,0,0,0,0,0,0,0,0,0,0,0,0,0,0,0,0,0,11,8,8,7,7,7,8,8,0,0,0,0,0,0,0,0,0,0,0,0,0,0,0,0,0,0,0,0,0,0,0,0,8,8,7,7,8,12,0,0,0,0,0,0,0,0,0,0,0,0,0,0,0,0,0,0,0,0,0,0,0,0,0,0,0,0,0,0,0,8,7,9,7,8,0,11,8,7,6,6,6,6,7,7,8,8,10,0,0,0,0,0,0,0,0,0,0,0,0,0,0,0,0,0,0,0,0,0,0,0,0,0,0,0,0,0,0,0,0,0,0,0,0,0,0,0,0,0,0,0,0,0,0,0,0,11,8,8,8,12,0,0,0,0,0,0,0,0,0,0,0,0,0,0,0,0,0,0,0,0,0,0,0,0,0,0,0,0,11,8,8,8,8,7,7,7,7,7,8,8,12,0,0,0,0,0,0,0,0,0,0,0,0,0,0,0,0,0,0,0,0,0,0,8,7,7,6,6,
0,0,0,0,0,0,0,0,0,0,0,0,0,0,0,0,0,0,0,0,0,0,0,0,0,0,0,0,0,0,0,0,0,0,10,10,10,0,0,0,0,0,0,0,0,0,0,0,0,0,0,11,8,8,12,0,0,0,0,0,0,0,0,0,0,0,0,0,0,0,0,0,0,11,8,8,8,8,12,0,0,0,0,0,0,0,0,0,0,0,0,0,0,0,0,0,0,0,11,8,8,8,12,0,0,0,0,0,0,0,0,0,0,0,0,0,0,0,0,0,0,0,0,0,0,0,0,0,0,0,0,0,0,0,0,0,0,0,0,0,0,11,8,8,8,8,8,8,12,0,0,0,0,0,0,0,0,0,0,0,0,0,0,0,0,8,8,7,6,6,6,6,7,8,8,12,0,0,0,0,0,0,0,0,0,0,0,0,0,0,0,11,8,8,7,6,6,6,7,8,12,0,0,0,0,0,0,0,0,0,0,11,8,8,8,12,0,0,0,0,0,0,0,11,8,7,7,7,7,8,12,0,0,0,0,0,0,0,0,0,0,0,0,0,0,0,0,0,0,0,0,0,0,0,0,0,0,0,0,0,0,13,8,8,8,14,11,8,8,7,6,6,6,6,7,7,8,8,8,10,0,0,0,0,0,0,0,0,0,0,0,0,0,0,0,0,0,0,0,0,0,0,0,0,0,0,0,0,0,0,0,0,11,8,8,8,8,12,0,0,0,0,0,0,0,0,11,8,8,7,8,8,12,0,0,0,0,0,0,0,0,0,0,0,0,0,0,0,0,0,0,0,0,0,0,0,0,0,0,11,8,8,8,7,7,7,7,7,7,7,7,7,8,0,0,0,0,0,0,0,0,0,0,0,0,0,0,0,0,0,0,0,0,0,11,8,7,7,6,6,
0,0,0,0,0,0,0,0,0,0,0,0,0,0,0,0,0,0,0,0,0,0,0,0,0,0,0,0,0,0,0,0,0,11,8,8,8,8,8,12,0,0,0,0,0,0,0,0,0,0,11,8,7,7,8,12,0,0,0,0,0,0,0,0,0,0,0,0,0,0,0,0,11,8,7,7,7,7,8,12,0,0,0,0,0,0,0,0,0,0,0,0,0,0,0,0,0,11,8,8,7,8,8,12,0,0,0,0,0,0,0,0,0,0,11,8,8,8,8,12,0,0,0,0,0,0,0,0,0,0,0,0,0,0,0,0,0,0,11,8,8,8,8,7,7,7,7,8,8,8,12,0,0,0,0,0,0,0,0,0,0,0,0,0,11,8,7,7,6,6,6,6,7,7,8,8,12,0,0,0,0,0,0,0,0,0,0,0,0,0,11,8,8,7,6,6,6,6,7,8,8,12,0,0,0,0,0,0,0,0,11,8,7,7,8,8,12,0,0,0,0,0,11,8,8,7,7,7,7,7,8,12,0,0,0,0,0,0,0,0,0,0,0,0,0,0,0,0,0,0,0,0,0,0,0,0,0,0,0,0,0,0,0,0,0,11,8,8,7,7,6,6,6,6,6,7,7,8,8,8,10,10,0,0,0,0,0,0,0,0,0,0,0,0,0,0,0,0,0,11,8,8,8,8,8,12,0,0,0,0,0,11,8,8,7,7,8,8,12,0,0,0,0,0,0,11,8,8,7,7,7,7,8,12,0,0,0,0,0,0,0,0,0,0,0,0,0,0,0,0,0,0,0,0,0,0,11,8,8,8,7,7,7,7,7,7,7,7,7,7,7,7,8,8,0,0,0,0,0,0,0,0,0,0,0,0,0,0,0,0,0,0,11,8,8,8,7,6,6,6,
0,0,0,0,0,0,0,0,0,0,0,0,0,0,0,0,0,11,8,8,8,8,8,12,0,0,0,0,0,0,0,0,11,8,7,7,7,7,8,8,12,0,0,0,0,0,0,0,0,130,8,7,7,7,7,8,0,0,0,0,0,0,0,0,0,0,0,0,0,0,0,11,8,8,7,6,6,7,7,8,12,0,0,0,0,0,0,0,0,0,0,0,0,0,0,0,11,8,8,7,7,7,8,8,12,0,0,0,0,0,0,0,11,8,8,7,7,7,7,8,12,0,0,0,0,0,0,0,0,0,0,0,0,0,0,0,129,8,8,8,7,7,7,7,7,7,7,7,7,8,8,8,8,12,0,0,0,0,0,0,0,0,0,11,8,7,7,6,6,6,6,6,7,7,7,8,8,12,0,0,0,0,0,0,0,0,0,0,11,8,8,7,7,6,6,6,6,6,6,7,8,8,0,0,0,0,0,0,0,11,8,7,7,7,7,8,8,12,0,0,0,10,8,8,7,7,7,7,7,7,7,8,12,0,0,0,0,0,0,0,0,0,0,0,0,0,0,0,0,0,0,0,0,0,0,0,0,0,0,0,0,10,10,10,8,8,8,7,7,6,6,6,6,6,6,6,7,7,7,7,8,8,12,11,8,8,8,8,12,0,0,0,0,0,0,0,0,11,8,8,8,7,7,7,8,8,12,0,0,0,11,8,8,7,7,7,7,8,8,12,0,0,0,11,8,8,7,7,7,7,7,7,7,8,12,0,0,0,0,0,0,0,0,0,0,0,0,0,0,0,0,0,0,0,0,0,8,8,8,7,7,7,7,6,6,6,6,6,6,6,6,7,7,8,8,0,0,0,0,0,0,0,0,0,0,0,0,0,0,11,8,8,8,7,7,7,7,6,6,6,
0,0,0,0,0,0,0,0,0,0,0,0,0,0,0,11,8,8,7,7,7,7,8,8,12,0,0,0,0,0,0,11,8,7,7,6,6,7,7,8,8,12,0,0,0,0,0,0,0,146,8,7,6,6,7,8,12,0,0,0,0,0,0,0,0,0,0,0,0,0,11,8,8,7,7,6,6,7,7,8,8,12,0,0,0,0,11,8,8,8,12,0,0,0,0,11,8,8,7,7,7,7,7,8,8,12,0,0,0,0,0,11,8,7,7,6,6,6,6,7,8,12,0,0,0,0,0,0,0,0,0,0,0,0,0,11,8,8,7,7,7,7,7,7,7,6,6,7,7,7,7,7,8,8,8,8,12,0,0,0,0,0,11,8,8,7,6,6,6,6,6,6,6,7,7,8,8,8,12,0,0,0,0,0,0,0,0,11,8,7,7,6,6,6,6,6,6,6,6,6,7,8,12,0,0,0,0,0,11,8,8,7,6,7,7,7,8,8,12,10,10,8,8,7,7,7,6,6,6,6,7,8,8,10,10,0,0,0,0,0,0,0,0,0,0,0,0,0,0,0,0,0,0,0,11,8,8,8,12,11,8,8,8,8,8,8,7,7,6,6,6,6,5,6,6,6,6,7,7,7,7,7,8,8,8,7,7,8,8,12,0,0,0,0,0,11,8,8,8,8,7,7,7,7,7,8,8,12,0,11,8,8,7,7,7,7,7,7,8,8,12,0,11,8,8,7,7,6,6,6,6,6,7,8,8,12,0,0,0,0,0,0,0,0,0,0,0,0,0,0,0,0,0,0,0,11,8,7,7,7,7,7,6,6,6,6,6,6,6,6,6,6,7,7,8,8,12,0,0,0,0,0,0,0,0,0,0,0,11,8,8,8,7,7,7,7,6,6,6,5,
0,0,0,0,0,0,0,0,0,0,0,0,0,0,11,8,7,7,7,7,7,7,7,7,8,12,0,0,0,129,11,8,8,7,6,6,6,6,7,8,8,8,12,0,0,0,0,0,161,162,8,7,6,6,7,7,8,12,10,10,10,10,10,10,10,10,10,10,10,10,8,7,7,7,6,6,6,6,7,7,8,8,12,129,0,11,8,6,6,6,8,12,0,11,8,8,8,7,7,6,6,6,7,8,8,8,8,12,0,11,8,8,8,7,6,6,5,5,6,7,8,8,8,12,0,0,0,0,0,0,0,0,11,8,8,8,7,7,7,7,7,7,6,6,6,6,6,6,7,7,7,7,7,7,7,7,8,8,12,0,0,11,8,8,7,7,6,6,6,6,6,6,6,6,7,7,8,8,8,8,12,0,0,0,0,0,11,8,7,6,6,6,6,6,5,5,5,5,6,6,6,8,8,12,0,0,0,11,8,7,7,7,6,6,7,7,7,8,8,8,8,8,7,7,7,6,6,6,6,6,6,7,8,8,8,10,10,10,0,0,0,0,11,8,8,8,12,0,0,0,11,8,8,8,8,8,7,8,8,8,8,7,7,7,7,7,7,6,6,6,6,5,5,5,6,6,6,6,6,7,7,7,7,8,7,7,7,7,8,8,12,0,0,11,8,8,8,8,8,7,7,6,6,7,7,7,8,8,8,8,8,7,7,7,6,7,7,7,7,8,8,8,8,8,8,7,6,6,5,5,5,6,6,7,8,8,8,12,0,0,0,0,0,11,8,8,8,8,8,8,8,12,11,8,8,8,7,7,7,7,6,6,6,6,6,5,5,5,5,5,6,6,6,7,7,8,8,8,8,8,12,0,0,0,0,11,8,8,8,8,8,7,7,7,6,6,6,6,5,5,
0,0,0,0,0,0,0,0,0,0,0,0,0,11,8,8,7,7,7,6,6,6,7,7,7,8,8,8,8,8,8,8,7,6,6,5,5,6,7,8,8,8,8,8,8,8,8,8,8,8,8,7,6,6,7,7,8,8,8,8,8,8,8,8,8,8,8,8,8,8,8,7,6,6,6,5,5,6,7,7,8,8,8,8,8,8,8,6,4,6,8,8,8,8,8,8,8,7,7,6,6,6,7,7,8,8,8,8,8,8,8,8,8,7,6,5,5,5,6,7,8,8,8,8,8,8,8,8,8,8,8,8,8,8,7,7,7,7,7,6,6,6,6,6,6,6,6,6,6,6,6,6,6,7,7,7,7,8,8,8,8,8,8,7,7,6,6,6,6,6,6,6,6,6,6,7,7,8,8,8,8,8,8,8,8,8,8,8,7,6,6,6,6,6,5,5,5,5,6,6,6,7,8,8,8,8,8,8,8,7,6,6,6,6,6,7,7,7,7,7,7,7,7,7,6,6,5,5,5,5,6,6,7,7,8,8,8,8,8,8,8,8,8,8,7,8,8,8,8,8,8,8,7,8,8,7,6,7,8,8,7,7,7,7,7,7,6,6,6,6,6,5,5,5,6,6,6,6,6,6,6,7,7,8,7,6,6,7,8,8,8,8,8,8,8,8,8,7,7,7,7,6,6,7,7,7,7,7,7,7,7,7,7,7,6,7,7,7,7,7,8,8,8,8,7,6,6,5,5,5,5,5,6,7,7,8,8,8,8,8,8,8,8,8,8,7,7,7,7,7,8,8,8,8,7,7,7,7,6,6,6,6,6,6,6,5,5,5,5,5,6,6,6,6,7,8,8,8,8,8,8,8,8,8,8,8,8,8,8,8,7,7,7,6,6,6,6,5,5,5
</data>
 </layer>
 <objectgroup id="2" name="object_1">
  <object id="8" name="battery" type="battery" x="2080" y="0" width="32" height="32"/>
  <object id="23" name="battery" type="battery" x="7232" y="128" width="32" height="32"/>
  <object id="24" name="battery" type="battery" x="8704" y="64" width="32" height="32"/>
  <object id="31" name="battery" type="battery" x="11872" y="256" width="32" height="32"/>
  <object id="32" name="battery" type="battery" x="11968" y="352" width="32" height="32"/>
  <object id="34" name="item" type="item" x="640" y="352" width="32" height="32">
   <properties>
    <property name="subtype" value="point"/>
   </properties>
  </object>
  <object id="35" name="item" type="item" x="1376" y="448" width="160" height="32">
   <properties>
    <property name="subtype" value="runway"/>
   </properties>
  </object>
  <object id="44" name="enemy" type="enemy" x="2816" y="32" width="32" height="32">
   <properties>
    <property name="spawn_pos" value="map"/>
    <property name="subtype" value="enemy_5"/>
   </properties>
  </object>
  <object id="46" name="enemy" type="enemy" x="2848" y="64" width="32" height="32">
   <properties>
    <property name="spawn_pos" value="map"/>
    <property name="subtype" value="enemy_5"/>
   </properties>
  </object>
  <object id="47" name="enemy" type="enemy" x="2880" y="96" width="32" height="32">
   <properties>
    <property name="spawn_pos" value="map"/>
    <property name="subtype" value="enemy_5"/>
   </properties>
  </object>
  <object id="48" name="enemy" type="enemy" x="2912" y="128" width="32" height="32">
   <properties>
    <property name="spawn_pos" value="map"/>
    <property name="subtype" value="enemy_5"/>
   </properties>
  </object>
  <object id="49" name="enemy" type="enemy" x="2944" y="160" width="32" height="32">
   <properties>
    <property name="spawn_pos" value="map"/>
    <property name="subtype" value="enemy_5"/>
   </properties>
  </object>
  <object id="52" name="enemy" type="enemy" x="9152" y="224" width="32" height="32">
   <properties>
    <property name="spawn_pos" value="right_middle"/>
    <property name="subtype" value="enemy_b1"/>
   </properties>
  </object>
  <object id="53" name="event" type="event" x="12768" y="0" width="32" height="32">
   <properties>
    <property name="subtype" value="scroll_stop"/>
   </properties>
  </object>
  <object id="58" name="spawner" type="spawner" x="608" y="0" width="32" height="32">
   <properties>
    <property name="duration" value="29"/>
    <property name="interval" value="2"/>
    <property name="spawn_pos" value="right_random"/>
    <property name="subtype" value="enemy_12"/>
    <property name="z" value="0"/>
   </properties>
  </object>
  <object id="59" name="spawner" type="spawner" x="9152" y="0" width="32" height="32">
   <properties>
    <property name="duration" value="20"/>
    <property name="interval" value="3"/>
    <property name="spawn_pos" value="right_middle"/>
    <property name="subtype" value="enemy_12"/>
    <property name="z" value="0"/>
   </properties>
  </object>
  <object id="62" name="event" type="event" x="9024" y="0" width="32" height="32">
   <properties>
    <property name="subtype" value="bgm_fadeout"/>
   </properties>
  </object>
  <object id="63" name="event" type="event" x="9152" y="64" width="32" height="32">
   <properties>
    <property name="subtype" value="bgm_boss"/>
   </properties>
  </object>
  <object id="64" name="spawner" type="spawner" x="3232" y="0" width="32" height="32">
   <properties>
    <property name="duration" value="20"/>
    <property name="interval" value="1"/>
    <property name="spawn_pos" value="right_random"/>
    <property name="subtype" value="enemy_12"/>
    <property name="z" value="0"/>
   </properties>
  </object>
  <object id="65" name="spawner" type="spawner" x="5952" y="0" width="32" height="32">
   <properties>
    <property name="duration" value="30"/>
    <property name="interval" value="1.0"/>
    <property name="spawn_pos" value="right_random"/>
    <property name="subtype" value="enemy_12"/>
    <property name="z" value="0"/>
   </properties>
  </object>
  <object id="69" name="battery" type="battery" x="2432" y="288" width="32" height="32">
   <properties>
    <property name="subtype" value="enemy_15a"/>
   </properties>
  </object>
  <object id="71" name="battery" type="battery" x="3200" y="288" width="32" height="32">
   <properties>
    <property name="subtype" value="enemy_15a"/>
   </properties>
  </object>
  <object id="72" name="battery" type="battery" x="3456" y="448" width="32" height="32">
   <properties>
    <property name="subtype" value="enemy_15a"/>
   </properties>
  </object>
  <object id="73" name="battery" type="battery" x="3712" y="320" width="32" height="32">
   <properties>
    <property name="subtype" value="enemy_15a"/>
   </properties>
  </object>
  <object id="74" name="battery" type="battery" x="4064" y="448" width="32" height="32">
   <properties>
    <property name="subtype" value="enemy_15a"/>
   </properties>
  </object>
  <object id="75" name="battery" type="battery" x="4288" y="416" width="32" height="32">
   <properties>
    <property name="subtype" value="enemy_15a"/>
   </properties>
  </object>
  <object id="76" name="battery" type="battery" x="4480" y="320" width="32" height="32">
   <properties>
    <property name="subtype" value="enemy_15a"/>
   </properties>
  </object>
  <object id="77" name="battery" type="battery" x="4608" y="288" width="32" height="32">
   <properties>
    <property name="subtype" value="enemy_15a"/>
   </properties>
  </object>
  <object id="78" name="battery" type="battery" x="4928" y="384" width="32" height="32">
   <properties>
    <property name="subtype" value="enemy_15a"/>
   </properties>
  </object>
  <object id="79" name="battery" type="battery" x="5120" y="448" width="32" height="32">
   <properties>
    <property name="subtype" value="enemy_15a"/>
   </properties>
  </object>
  <object id="80" name="battery" type="battery" x="5408" y="192" width="32" height="32">
   <properties>
    <property name="subtype" value="enemy_15a"/>
   </properties>
  </object>
  <object id="81" name="battery" type="battery" x="5792" y="448" width="32" height="32">
   <properties>
    <property name="subtype" value="enemy_15a"/>
   </properties>
  </object>
  <object id="82" name="battery" type="battery" x="5920" y="448" width="32" height="32">
   <properties>
    <property name="subtype" value="enemy_15a"/>
   </properties>
  </object>
  <object id="83" name="battery" type="battery" x="6272" y="224" width="32" height="32">
   <properties>
    <property name="subtype" value="enemy_15a"/>
   </properties>
  </object>
  <object id="84" name="battery" type="battery" x="6816" y="288" width="32" height="32">
   <properties>
    <property name="subtype" value="enemy_15a"/>
   </properties>
  </object>
  <object id="85" name="battery" type="battery" x="8064" y="416" width="32" height="32">
   <properties>
    <property name="subtype" value="enemy_15a"/>
   </properties>
  </object>
  <object id="87" name="battery" type="battery" x="7808" y="416" width="32" height="32">
   <properties>
    <property name="subtype" value="enemy_15a"/>
   </properties>
  </object>
  <object id="89" name="battery" type="battery" x="8192" y="384" width="32" height="32">
   <properties>
    <property name="subtype" value="enemy_15a"/>
   </properties>
  </object>
  <object id="90" name="battery" type="battery" x="9152" y="352" width="32" height="32">
   <properties>
    <property name="subtype" value="enemy_15a"/>
   </properties>
  </object>
  <object id="91" name="battery" type="battery" x="9664" y="320" width="32" height="32">
   <properties>
    <property name="subtype" value="enemy_15a"/>
   </properties>
  </object>
  <object id="92" name="battery" type="battery" x="10048" y="288" width="32" height="32">
   <properties>
    <property name="subtype" value="enemy_15a"/>
   </properties>
  </object>
  <object id="93" name="battery" type="battery" x="10528" y="256" width="32" height="32">
   <properties>
    <property name="subtype" value="enemy_15a"/>
   </properties>
  </object>
  <object id="94" name="battery" type="battery" x="10912" y="448" width="32" height="32">
   <properties>
    <property name="subtype" value="enemy_15a"/>
   </properties>
  </object>
  <object id="96" name="battery" type="battery" x="11104" y="416" width="32" height="32">
   <properties>
    <property name="subtype" value="enemy_15a"/>
   </properties>
  </object>
  <object id="97" name="battery" type="battery" x="11328" y="416" width="32" height="32">
   <properties>
    <property name="subtype" value="enemy_15a"/>
   </properties>
  </object>
  <object id="98" name="battery" type="battery" x="11584" y="256" width="32" height="32">
   <properties>
    <property name="subtype" value="enemy_15a"/>
   </properties>
  </object>
  <object id="100" name="battery" type="battery" x="12480" y="352" width="32" height="32"/>
  <object id="101" name="battery" type="battery" x="12640" y="192" width="32" height="32"/>
  <object id="102" name="battery" type="battery" x="1664" y="288" width="32" height="32"/>
  <object id="103" name="battery" type="battery" x="2816" y="384" width="32" height="32"/>
  <object id="104" name="enemy" type="enemy" x="6912" y="64" width="32" height="32">
   <properties>
    <property name="spawn_pos" value="map"/>
    <property name="subtype" value="enemy_5"/>
   </properties>
  </object>
  <object id="105" name="enemy" type="enemy" x="6944" y="96" width="32" height="32">
   <properties>
    <property name="spawn_pos" value="map"/>
    <property name="subtype" value="enemy_5"/>
   </properties>
  </object>
  <object id="106" name="enemy" type="enemy" x="6976" y="128" width="32" height="32">
   <properties>
    <property name="spawn_pos" value="map"/>
    <property name="subtype" value="enemy_5"/>
   </properties>
  </object>
  <object id="107" name="enemy" type="enemy" x="7008" y="160" width="32" height="32">
   <properties>
    <property name="spawn_pos" value="map"/>
    <property name="subtype" value="enemy_5"/>
   </properties>
  </object>
  <object id="110" name="battery" type="battery" x="6528" y="448" width="32" height="32"/>
  <object id="111" name="battery" type="battery" x="6592" y="448" width="32" height="32"/>
  <object id="112" name="battery" type="battery" x="8416" y="224" width="32" height="32">
   <properties>
    <property name="subtype" value="enemy_15a"/>
   </properties>
  </object>
  <object id="113" name="item" type="item" x="8480" y="352" width="32" height="32">
   <properties>
    <property name="subtype" value="point"/>
   </properties>
  </object>
  <object id="114" name="battery" type="battery" x="7680" y="64" width="32" height="32">
   <properties>
    <property name="parameter" value="flipY"/>
    <property name="subtype" value="enemy_15a"/>
   </properties>
  </object>
  <object id="115" name="battery" type="battery" x="7936" y="64" width="32" height="32">
   <properties>
    <property name="parameter" value="flipY"/>
    <property name="subtype" value="enemy_15a"/>
   </properties>
  </object>
  <object id="116" name="battery" type="battery" x="8192" y="96" width="32" height="32">
   <properties>
    <property name="parameter" value="flipY"/>
    <property name="subtype" value="enemy_15a"/>
   </properties>
  </object>
  <object id="117" name="battery" type="battery" x="9856" y="128" width="32" height="32">
   <properties>
    <property name="parameter" value="flipY"/>
    <property name="subtype" value="enemy_15a"/>
   </properties>
  </object>
  <object id="118" name="battery" type="battery" x="10272" y="128" width="32" height="32">
   <properties>
    <property name="parameter" value="flipY"/>
    <property name="subtype" value="enemy_15a"/>
   </properties>
  </object>
  <object id="119" name="battery" type="battery" x="11232" y="64" width="32" height="32">
   <properties>
    <property name="parameter" value="flipY"/>
    <property name="subtype" value="enemy_15a"/>
   </properties>
  </object>
  <object id="121" name="battery" type="battery" x="11648" y="128" width="32" height="32">
   <properties>
    <property name="parameter" value="flipY"/>
    <property name="subtype" value="enemy_15a"/>
   </properties>
  </object>
 </objectgroup>
</map>
