<?xml version="1.0" encoding="UTF-8"?>
<map version="1.10" tiledversion="1.11.2" orientation="orthogonal" renderorder="right-down" width="400" height="16" tilewidth="32" tileheight="32" infinite="0" nextlayerid="3" nextobjectid="190">
 <editorsettings>
  <export target="stage_8.json" format="json"/>
 </editorsettings>
 <tileset firstgid="1" name="bg_tileset" tilewidth="32" tileheight="32" tilecount="256" columns="16">
  <image source="../images/bg_tileset.png" trans="000000" width="512" height="512"/>
  <tile id="128">
   <properties>
    <property name="nonCollidable" type="bool" value="true"/>
   </properties>
  </tile>
 </tileset>
 <layer id="1" name="layer_1" width="400" height="16">
  <data encoding="csv">
0,0,0,0,0,0,0,0,0,0,0,0,0,0,0,0,0,0,0,0,0,0,0,0,0,0,0,0,0,0,0,0,0,0,0,0,0,0,0,0,0,0,0,0,0,0,0,0,0,0,0,0,0,0,0,0,0,0,0,0,0,0,0,0,0,0,0,0,0,0,0,0,0,0,0,0,0,0,0,0,0,0,0,0,0,0,0,0,0,0,0,0,0,0,0,0,0,0,0,0,0,0,0,0,0,0,0,0,0,0,0,0,0,0,0,0,0,0,0,0,0,0,0,0,0,0,0,0,0,0,0,0,0,0,0,0,0,0,120,120,120,120,120,0,0,0,0,0,0,120,120,120,120,120,120,120,120,120,120,120,120,120,120,120,120,120,120,120,120,120,120,120,120,120,120,120,120,120,120,120,120,120,120,120,120,120,120,120,120,120,120,120,120,120,120,120,120,120,120,120,120,120,120,120,120,120,120,120,120,120,0,0,0,0,0,0,0,0,0,0,0,0,0,0,0,0,0,0,0,0,0,0,0,0,0,0,0,0,0,0,0,0,0,0,0,0,0,0,0,0,0,0,0,0,0,0,0,0,0,0,0,0,0,0,0,0,0,0,0,0,0,0,0,0,0,0,0,0,0,0,0,0,0,0,0,0,0,0,0,0,0,0,0,0,0,0,0,0,0,0,0,0,0,0,0,0,0,0,0,0,0,0,0,0,0,0,0,0,0,0,0,0,0,0,0,0,0,0,0,0,0,0,0,0,0,0,0,0,0,0,0,0,0,0,0,0,0,0,0,0,0,0,0,0,0,0,0,0,0,0,0,0,0,0,0,0,0,0,0,0,0,0,0,0,0,0,0,0,0,0,0,0,0,0,0,0,0,0,0,0,0,0,0,0,0,0,0,0,0,0,
0,0,0,0,0,0,0,0,0,0,0,0,0,0,0,0,0,0,0,0,0,0,0,0,0,0,0,0,0,0,0,0,0,0,0,0,0,0,0,0,0,0,0,0,0,0,0,0,0,0,0,0,0,0,0,0,0,0,0,0,0,0,0,0,0,0,0,0,0,0,0,0,0,0,0,0,0,0,0,0,0,0,0,0,0,0,0,0,0,0,0,0,0,0,0,0,0,0,0,0,0,0,0,0,0,0,0,0,0,0,0,0,0,0,0,0,0,0,0,0,0,0,0,0,0,0,0,0,0,0,0,0,0,0,0,0,0,0,0,120,120,120,0,0,0,0,0,0,0,0,0,0,0,0,0,0,0,120,120,120,120,120,120,120,120,120,120,120,120,120,120,120,120,120,120,120,120,120,120,120,120,120,120,120,120,120,120,120,120,120,120,120,120,120,120,120,120,120,120,120,120,120,120,120,0,0,0,0,0,0,0,0,0,0,0,0,0,0,0,0,0,0,0,0,0,0,0,0,0,0,0,0,0,0,0,0,0,0,0,0,0,0,0,0,0,0,0,0,0,0,0,0,0,0,0,0,0,0,0,0,0,0,0,0,0,0,0,0,0,0,0,0,120,0,0,0,0,0,0,0,0,0,0,0,0,0,0,0,0,0,0,0,0,0,0,0,0,0,0,0,0,0,0,0,0,0,0,0,0,0,0,0,0,0,0,0,0,0,0,0,0,0,0,0,0,0,0,0,0,0,0,0,0,0,0,0,0,0,0,0,0,0,0,0,0,0,0,0,0,0,0,0,0,0,0,0,0,0,0,0,0,0,0,0,0,0,0,0,0,0,0,0,0,0,0,0,0,0,0,0,0,0,0,0,0,0,0,0,0,0,0,0,0,0,0,0,0,0,0,0,
0,0,0,0,0,0,0,0,0,0,0,0,0,0,0,0,0,0,0,0,0,0,0,0,0,0,0,0,0,0,0,0,0,0,0,0,0,0,0,0,0,0,0,0,0,0,0,0,0,0,0,0,0,0,0,0,0,0,0,0,0,0,0,0,0,0,0,0,0,0,0,0,0,0,0,0,0,0,0,0,0,0,0,0,0,0,120,0,0,0,0,0,0,0,0,0,0,0,0,0,0,0,0,0,0,0,0,120,0,0,0,0,0,0,0,0,0,0,0,0,0,0,0,0,0,0,0,0,0,0,0,0,0,0,0,0,0,0,0,0,120,0,0,0,0,0,0,0,0,0,0,0,0,0,0,0,0,0,0,0,0,0,0,0,0,0,0,0,0,0,0,0,0,0,0,0,0,0,0,0,0,0,0,0,0,0,0,0,0,0,0,0,0,0,0,0,0,0,0,0,0,0,0,0,0,0,0,0,0,0,0,0,0,0,0,0,0,0,120,0,0,0,0,0,0,0,0,0,0,0,0,0,0,0,0,0,0,0,0,0,0,0,0,0,0,0,0,0,0,0,0,0,0,0,0,0,0,0,0,0,0,0,0,0,0,0,0,0,0,120,0,120,120,120,0,0,0,0,0,0,0,0,0,0,0,0,0,0,0,0,0,0,0,0,0,0,0,0,0,0,0,0,0,0,0,0,0,0,0,0,0,0,0,0,0,0,0,0,0,0,0,0,0,0,0,0,0,0,0,0,0,0,0,0,0,0,0,0,0,0,0,0,0,0,0,0,0,0,0,0,0,0,0,0,0,0,0,0,0,0,0,0,0,0,0,0,0,0,0,0,0,0,0,0,0,0,0,0,0,0,0,0,0,0,0,0,0,0,0,0,0,0,0,0,0,0,0,0,0,0,
0,0,0,0,0,0,0,0,0,0,0,0,0,0,0,0,0,0,0,0,0,0,0,0,0,0,0,0,0,0,0,0,0,0,0,0,0,0,0,0,0,0,0,0,0,0,0,0,0,0,0,0,0,0,0,0,0,0,0,0,0,0,0,0,0,0,0,0,0,0,0,0,0,0,0,0,0,0,0,0,0,0,0,0,0,0,120,0,0,0,0,0,0,0,0,0,0,0,0,0,0,0,0,0,0,0,0,120,0,0,0,0,0,0,0,0,0,0,0,0,0,0,0,0,0,0,0,0,0,0,0,0,0,0,0,0,0,0,0,0,0,0,0,0,0,0,0,0,0,0,0,0,0,0,0,0,0,0,0,0,0,0,0,0,0,0,0,0,0,0,0,0,0,0,0,0,0,0,0,0,0,0,0,0,0,0,0,0,0,0,0,0,0,0,0,0,0,0,0,0,0,0,0,0,0,0,0,0,0,0,0,0,0,0,0,0,0,0,0,0,0,0,0,0,0,0,0,0,0,0,0,0,0,0,0,0,0,0,0,0,0,0,0,0,0,0,0,0,0,0,0,0,0,0,0,0,0,0,0,0,0,0,0,0,0,0,0,0,0,0,0,0,120,0,0,0,0,0,0,0,0,0,0,0,0,0,0,0,0,0,0,0,0,0,0,0,0,0,0,0,0,0,0,0,0,0,0,0,0,0,0,0,0,0,0,0,0,0,0,0,0,0,0,0,0,0,0,0,0,0,0,0,0,0,0,0,0,0,0,0,0,0,0,0,0,0,0,0,0,0,0,0,0,0,0,0,0,0,0,0,0,0,0,0,0,0,0,0,0,0,0,0,0,0,0,0,0,0,0,0,0,0,0,0,0,0,0,0,0,0,0,0,0,0,0,0,0,0,0,0,
0,0,0,0,0,0,0,0,0,0,0,0,0,0,0,0,0,0,0,0,0,0,0,0,0,0,0,0,0,0,0,0,0,0,0,0,0,0,0,0,0,0,0,0,0,0,0,0,0,0,0,0,0,0,0,0,0,0,0,0,0,0,0,0,0,0,0,0,0,0,0,0,0,0,0,0,0,0,0,0,0,0,0,0,0,0,120,0,0,0,0,0,0,0,0,0,0,0,0,0,0,0,0,0,0,0,0,120,0,0,0,0,0,0,0,0,0,0,0,0,0,0,0,0,0,0,0,0,0,0,0,0,0,0,0,0,0,0,0,0,0,0,0,0,0,0,0,0,0,0,0,0,0,0,0,0,0,0,0,0,0,0,0,0,0,0,0,0,0,0,0,0,0,0,0,0,0,0,0,0,0,0,0,0,0,0,0,0,0,0,0,0,0,0,0,0,0,0,0,0,0,0,0,0,0,0,0,0,0,0,0,0,0,0,0,0,0,0,0,0,0,0,0,0,0,0,0,0,0,0,0,0,0,0,0,0,0,0,0,0,0,0,0,0,0,0,0,0,0,0,0,0,0,0,0,0,0,0,0,0,0,0,0,0,0,0,0,0,0,0,0,0,0,0,0,0,0,0,0,0,0,0,0,0,0,0,0,0,0,0,129,120,0,0,0,0,0,0,0,0,0,0,0,0,0,0,0,0,0,0,0,0,0,0,0,0,0,0,0,0,0,0,0,0,0,0,0,0,0,0,0,0,0,0,0,0,0,0,0,0,0,0,0,0,0,0,0,0,0,0,0,0,0,0,0,0,0,0,0,0,0,0,0,0,0,0,0,0,0,0,0,0,0,0,0,0,0,0,0,0,0,0,0,0,0,0,0,0,0,0,0,0,0,0,0,0,0,0,0,0,
0,0,0,0,0,0,0,0,0,0,0,0,0,0,0,0,0,0,0,0,0,0,0,0,0,0,0,0,0,0,0,0,0,0,0,0,0,0,0,0,0,0,0,0,0,0,0,0,0,0,0,0,0,0,0,0,0,0,0,0,0,0,0,0,0,0,0,0,0,0,0,0,0,0,0,0,0,0,0,0,0,0,0,0,0,0,0,0,0,0,0,0,0,0,0,0,0,0,0,0,0,0,0,0,0,0,0,0,0,0,0,0,0,0,0,0,0,0,0,120,0,0,0,0,0,0,0,0,0,0,0,0,0,0,0,0,0,0,0,0,0,0,0,0,0,0,0,0,0,0,0,0,0,0,0,0,0,0,0,0,0,0,0,0,0,0,0,0,0,0,0,0,0,0,0,0,0,0,0,0,0,0,0,0,0,0,0,0,0,0,0,0,0,0,0,0,0,0,0,0,0,0,0,0,0,0,0,0,0,0,0,0,0,0,0,0,0,0,0,0,0,0,0,0,0,0,0,0,0,0,0,0,0,0,0,0,0,0,0,0,0,0,0,0,0,0,0,0,0,0,0,0,0,0,0,0,0,0,0,0,0,0,0,0,0,0,0,0,0,0,0,0,0,0,0,120,0,0,0,0,0,0,0,120,0,0,0,0,0,0,120,120,120,0,0,0,0,0,0,0,0,120,0,0,0,0,0,0,0,0,0,0,0,0,0,0,0,0,0,0,0,0,0,0,0,0,0,0,0,0,0,0,0,0,0,0,0,0,0,0,0,0,0,0,0,0,0,0,0,0,0,0,0,0,0,0,0,0,0,0,0,0,0,0,0,0,0,0,0,0,0,0,0,0,0,0,0,0,0,0,0,0,0,0,0,0,0,0,0,0,0,0,0,0,0,0,0,0,0,0,
0,0,0,0,0,0,0,0,0,0,0,0,0,0,0,0,0,0,0,0,0,0,0,0,0,0,0,0,0,0,0,0,0,0,0,0,0,0,0,0,0,0,0,0,0,0,0,0,0,0,0,0,0,0,0,0,0,0,0,0,0,0,0,0,0,0,0,0,0,0,0,0,0,0,0,0,0,0,0,0,0,0,0,0,0,0,0,0,0,0,0,0,0,0,0,0,0,0,0,120,0,0,0,0,0,0,0,0,0,0,0,0,0,0,0,0,0,0,0,120,0,0,0,0,0,0,0,0,0,0,0,0,0,0,0,0,0,0,0,0,0,0,0,0,0,0,0,0,0,0,0,0,0,0,0,0,0,0,0,0,0,0,0,0,0,0,0,0,0,0,0,0,0,0,0,0,0,0,0,0,0,0,0,0,0,0,0,0,0,0,0,0,0,0,0,0,0,0,0,0,0,0,0,0,0,0,0,0,0,0,0,0,0,0,0,0,0,0,0,0,0,0,0,0,0,0,0,0,0,0,0,0,0,0,0,0,0,0,0,0,0,0,0,0,0,0,0,0,0,0,0,0,0,0,0,0,0,0,0,0,0,0,0,0,0,0,0,0,0,0,0,0,0,0,0,0,0,0,0,0,0,0,0,0,0,0,0,120,0,0,0,120,0,0,0,0,0,0,0,0,120,120,120,0,0,0,0,0,0,0,0,0,0,0,0,0,0,0,0,0,0,0,0,0,0,0,0,0,0,0,0,0,0,0,0,0,0,0,0,0,0,0,0,0,0,0,0,0,0,0,0,0,0,0,0,0,0,0,0,0,0,0,0,0,0,0,0,0,0,0,0,0,0,0,0,0,0,0,0,0,0,0,0,0,0,0,0,0,0,0,0,0,0,0,0,0,0,0,0,0,
0,0,0,0,0,0,0,0,0,0,0,0,0,0,0,0,0,0,0,0,0,0,0,0,0,0,0,0,0,0,0,0,0,0,0,0,0,0,0,0,0,0,0,0,0,0,0,0,0,0,0,0,0,0,0,0,0,0,0,0,0,0,0,0,0,0,0,0,0,0,0,0,0,0,0,0,0,0,0,0,0,0,0,0,0,0,0,0,0,0,0,0,0,0,0,0,0,0,0,120,0,0,0,0,0,0,0,0,0,0,0,0,0,0,0,0,0,0,0,120,0,0,0,0,0,0,0,0,0,0,0,0,0,0,0,0,0,0,0,0,0,0,0,0,0,0,0,0,0,0,0,0,0,0,0,0,0,0,0,0,0,0,0,0,0,0,0,0,0,0,0,0,0,0,0,0,0,0,0,0,0,0,0,0,0,0,0,0,0,0,0,0,0,0,0,0,0,0,0,0,0,0,0,0,0,0,0,0,0,0,0,0,0,0,0,0,0,0,0,0,0,0,0,0,0,0,0,0,0,0,0,0,0,0,0,0,0,0,0,0,0,0,0,0,0,0,0,0,0,0,0,0,0,0,0,0,0,0,0,0,0,0,0,0,0,0,0,0,0,0,0,0,0,0,0,0,0,120,0,0,0,0,0,0,0,0,0,0,0,0,0,0,0,0,0,0,0,0,0,0,0,120,0,0,0,0,0,0,0,0,0,0,0,0,0,0,0,0,0,0,0,0,0,0,0,0,0,0,0,0,0,0,0,0,0,0,0,0,0,0,0,0,0,0,0,0,0,0,0,0,0,0,0,0,0,0,0,0,0,0,0,0,0,0,0,0,0,0,0,0,0,0,0,0,0,0,0,0,0,0,0,0,0,0,0,0,0,0,0,0,0,0,0,0,0,0,0,0,0,0,
0,0,0,0,0,0,0,0,0,0,0,0,0,0,0,0,0,0,0,0,0,0,0,0,0,0,0,0,0,0,0,0,0,0,0,0,0,0,0,0,0,0,0,0,0,0,0,0,0,0,0,0,0,0,0,0,0,0,0,0,0,0,0,0,0,0,0,0,0,0,0,0,0,0,0,0,0,0,0,0,0,0,0,0,0,0,0,0,0,0,0,0,0,0,0,0,0,0,0,120,0,0,0,0,0,0,0,0,0,0,0,0,0,0,0,0,0,0,0,0,0,0,0,0,0,0,0,0,0,0,0,0,0,0,0,0,0,0,0,0,0,0,0,0,0,0,0,0,0,0,0,0,0,0,0,0,0,0,0,0,0,0,0,0,0,0,0,0,0,0,0,0,0,0,0,0,0,0,0,0,0,0,0,0,0,0,0,0,0,0,0,0,0,0,0,0,0,0,0,0,0,0,0,0,0,0,0,0,0,0,0,0,0,0,0,0,0,0,120,0,0,0,0,0,0,0,0,0,0,0,0,0,0,0,0,0,0,0,0,0,0,0,0,0,0,0,0,0,0,0,0,0,0,0,0,0,0,0,0,0,0,0,0,0,0,0,0,0,0,0,0,0,0,0,0,0,0,0,0,0,0,0,0,0,0,120,0,0,0,0,0,0,0,0,0,0,0,0,0,0,0,0,0,0,0,0,120,0,0,0,0,0,0,0,0,0,0,0,0,0,0,0,0,0,0,0,0,0,0,0,0,0,0,0,0,0,0,0,0,0,0,0,0,0,0,0,0,0,0,0,0,0,0,0,0,0,0,0,0,0,0,0,0,0,0,0,0,0,0,0,0,0,0,0,0,0,0,0,0,0,0,0,0,0,0,0,0,0,0,0,0,0,0,0,0,0,0,0,0,0,
0,0,0,0,0,0,0,0,0,0,0,0,0,0,0,0,0,0,0,0,0,0,0,0,0,0,0,0,0,0,0,0,0,0,0,0,0,0,0,0,0,0,0,0,0,0,0,0,0,0,0,0,0,0,0,0,0,0,0,0,0,0,0,0,0,0,0,0,0,0,0,0,0,0,0,0,0,0,0,0,0,0,0,0,0,0,0,0,0,0,0,0,0,0,0,0,0,0,0,0,0,0,0,0,0,0,0,0,0,0,0,0,0,0,0,0,0,0,0,0,0,0,0,0,0,0,0,0,0,0,0,0,0,0,0,0,0,0,0,0,0,0,0,0,0,0,0,0,0,0,0,0,0,0,0,0,0,0,0,0,0,0,0,0,0,0,0,0,0,0,0,0,0,0,0,0,0,0,0,0,0,0,0,0,0,0,0,0,0,0,0,0,0,0,0,0,0,0,0,0,0,0,0,0,0,0,0,0,0,0,0,0,0,0,0,0,0,0,0,0,0,0,0,0,0,0,0,0,0,0,0,0,0,0,0,0,0,0,0,0,0,0,0,0,0,0,0,0,0,0,0,0,0,0,0,0,0,0,0,0,0,0,0,0,0,0,0,0,0,0,0,0,0,0,0,0,0,0,0,0,0,0,0,0,0,0,0,0,0,0,0,0,0,120,0,0,0,0,0,0,0,0,0,0,0,0,0,0,0,0,0,0,0,0,0,0,0,0,0,0,0,0,0,0,0,0,0,0,0,0,0,0,0,0,0,0,0,0,0,0,0,0,0,0,0,0,0,0,0,0,0,0,0,0,0,0,0,0,0,0,0,0,0,0,0,0,0,0,0,0,0,0,0,0,0,0,0,0,0,0,0,0,0,0,0,0,0,0,0,0,0,0,0,0,0,0,0,0,0,0,
0,0,0,0,0,0,0,0,0,0,0,0,0,0,0,0,0,0,0,0,0,0,0,0,0,0,0,0,0,0,0,0,0,0,0,0,0,0,0,0,0,0,0,0,0,0,0,0,0,0,0,0,0,0,0,0,0,0,0,0,0,0,0,0,0,0,0,0,0,0,0,0,0,0,0,0,0,0,0,0,0,0,0,0,0,0,0,0,0,0,0,0,0,0,0,0,0,0,0,0,0,0,0,0,0,0,0,0,0,0,0,0,0,0,0,0,0,0,0,0,0,0,0,0,0,0,0,0,0,0,0,0,0,0,0,0,0,0,0,0,0,0,0,0,0,0,0,0,0,0,0,0,0,0,0,0,0,0,0,0,0,0,0,0,0,0,0,0,0,0,0,0,0,0,0,0,0,0,0,0,0,0,0,0,0,0,0,0,0,0,0,0,0,0,0,0,0,0,0,0,0,0,0,0,0,0,0,0,0,0,0,0,0,0,0,0,0,0,0,0,0,0,0,0,0,0,0,0,0,0,0,0,0,0,0,0,0,0,0,0,0,0,0,0,0,0,0,0,0,0,0,0,0,0,0,0,0,0,0,0,0,0,0,0,0,0,0,0,0,0,0,0,0,0,0,0,0,0,0,0,0,0,0,0,0,0,0,0,0,0,0,0,0,0,0,0,0,0,0,0,0,0,0,0,0,0,0,0,0,0,0,0,0,0,0,0,0,0,0,0,0,0,0,0,0,0,0,0,0,0,0,0,0,0,0,0,0,0,0,0,0,0,0,0,0,0,0,0,0,0,0,0,0,0,0,0,0,0,0,0,0,0,0,0,0,0,0,0,0,0,0,0,0,0,0,0,0,0,0,0,0,0,0,0,0,0,0,0,0,0,0,0,0,0,0,0,0,0,0,0,
0,0,0,0,0,0,0,0,0,0,0,0,0,0,0,0,0,0,0,0,0,0,0,0,0,0,0,0,0,0,0,0,0,0,0,0,0,0,0,0,0,0,0,0,0,0,0,0,0,0,0,0,0,0,0,0,0,0,0,0,0,0,0,0,0,0,0,0,0,0,0,0,0,0,0,0,0,0,0,0,0,0,0,0,0,0,0,0,0,0,0,0,0,120,0,0,0,0,0,0,0,0,0,0,0,0,0,0,0,0,0,0,0,120,0,0,0,0,0,0,0,0,0,0,0,0,0,0,0,0,0,0,0,0,0,0,0,0,0,0,0,0,0,0,0,0,0,0,0,0,0,0,0,0,0,0,0,0,0,0,0,0,0,0,0,0,0,0,0,0,0,0,0,0,0,0,0,0,0,0,0,0,0,0,0,0,0,0,0,0,0,0,0,0,0,0,0,0,0,0,0,0,0,0,0,0,0,0,0,0,0,0,0,0,0,0,0,0,0,0,0,0,0,0,0,0,0,0,0,0,0,0,0,0,0,0,0,0,0,0,0,0,0,0,0,0,0,0,0,0,0,0,0,0,0,0,0,0,0,0,0,0,0,0,0,0,0,0,0,0,0,0,0,0,0,0,0,0,0,0,0,120,0,0,0,0,0,0,0,0,0,0,0,0,0,0,0,0,0,0,0,0,0,0,0,0,0,0,0,0,0,0,0,0,0,0,0,0,0,0,0,0,0,0,0,0,0,0,0,0,0,0,0,0,0,0,0,0,0,0,0,0,0,0,0,0,0,0,0,0,0,0,0,0,0,0,0,0,0,0,0,0,0,0,0,0,0,0,0,0,0,0,0,0,0,0,0,0,0,0,0,0,0,0,0,0,0,0,0,0,0,0,0,0,0,0,0,0,0,0,
0,0,0,0,0,0,0,0,0,0,0,0,0,0,0,0,0,0,0,0,0,0,0,0,0,0,0,0,0,0,0,0,0,0,0,0,0,0,0,0,0,0,0,0,0,0,0,0,0,0,0,0,0,0,0,0,0,0,0,0,0,0,0,0,0,0,0,0,0,0,0,0,0,0,0,0,0,0,0,0,0,0,0,0,0,0,0,0,0,0,0,0,0,120,0,0,0,0,0,0,0,0,0,0,0,0,0,0,0,0,0,0,0,120,0,0,0,0,0,0,0,0,0,0,0,0,0,0,0,0,0,0,0,0,0,0,0,0,0,0,0,0,0,0,0,0,0,0,0,0,0,0,0,0,0,0,0,0,0,0,0,0,0,0,0,0,0,0,0,0,0,0,0,0,0,0,0,0,0,0,0,0,0,0,0,0,0,0,0,0,0,0,0,0,0,0,0,0,0,0,0,0,0,0,0,0,0,0,0,0,0,0,0,0,0,0,0,0,0,0,0,0,0,0,0,0,0,0,0,0,0,0,0,0,0,0,0,0,0,0,0,0,0,0,0,0,0,0,0,0,0,0,0,0,0,0,0,0,0,0,0,0,0,0,0,0,0,0,0,0,0,0,0,0,120,0,0,0,0,0,0,0,0,0,0,0,0,0,0,0,0,0,0,0,0,0,0,0,0,0,0,0,130,0,0,0,0,0,0,0,0,0,0,0,0,0,0,0,0,0,0,0,0,0,0,0,0,0,0,0,0,0,0,0,0,0,0,0,0,0,0,0,0,0,0,0,0,0,0,0,0,0,0,0,0,0,0,0,0,0,0,0,0,0,0,0,0,0,0,0,0,0,0,0,0,0,0,0,0,0,0,0,0,0,0,0,0,0,0,0,0,0,0,0,0,0,0,0,0,0,
0,0,0,0,0,0,0,0,0,0,0,0,0,0,0,0,0,0,0,0,0,0,0,0,0,0,0,0,0,0,0,0,0,0,0,0,0,0,0,0,0,0,0,0,0,0,0,0,0,0,0,0,0,0,0,0,0,0,0,0,0,0,0,0,0,0,0,0,0,0,0,0,0,0,0,0,0,0,0,0,0,0,0,0,0,0,0,0,0,0,0,0,0,120,0,0,0,0,0,0,0,0,0,0,0,0,0,0,0,0,0,0,0,120,0,0,0,0,0,0,0,0,0,0,0,0,0,0,0,0,0,0,0,0,0,0,0,0,0,0,120,0,0,0,0,0,0,0,0,0,0,0,0,0,0,0,0,0,0,0,0,0,0,0,0,0,0,0,0,0,0,0,0,0,0,0,0,0,0,0,0,0,0,0,0,0,0,0,0,0,0,0,0,0,0,0,0,0,0,0,0,0,0,0,0,0,0,0,0,0,0,0,0,0,0,0,0,0,120,0,0,0,0,0,0,0,0,0,0,0,0,0,0,0,0,0,0,0,0,0,0,0,0,0,0,0,0,0,0,0,0,0,0,0,0,0,0,0,0,0,0,0,0,0,0,0,0,0,0,0,0,0,0,0,0,0,0,0,0,0,0,0,0,0,0,0,0,0,0,120,0,0,0,0,0,0,0,0,0,0,0,0,146,0,0,0,0,0,0,0,0,0,0,0,0,0,0,0,0,0,0,0,0,0,0,0,0,0,0,0,0,0,0,0,0,0,0,0,0,0,0,0,0,0,0,0,0,0,0,0,0,0,0,0,0,0,0,0,0,0,0,0,0,0,0,0,0,0,0,0,0,0,0,0,0,0,0,0,0,0,0,0,0,0,0,0,0,0,0,0,0,0,0,0,0,0,0,0,0,0,
0,0,0,0,0,0,0,0,0,0,0,0,0,0,0,0,0,0,0,0,0,0,0,0,0,0,0,0,0,129,0,0,0,0,0,0,0,0,0,0,0,0,0,0,0,0,0,0,0,0,0,0,0,0,0,0,0,0,0,0,0,0,0,0,0,0,0,0,0,0,0,0,0,0,0,0,0,0,0,0,0,0,0,0,0,0,0,0,0,0,0,0,0,0,0,0,0,0,0,0,0,0,0,0,0,0,0,0,0,0,0,0,0,0,0,0,0,0,0,0,0,0,0,0,0,0,0,0,0,0,0,0,0,0,0,0,0,0,0,120,120,120,0,0,0,0,0,0,0,129,0,0,0,0,0,0,0,120,120,120,120,120,120,120,120,120,120,120,120,120,120,120,120,120,120,120,120,120,120,120,120,120,120,120,120,120,120,120,120,120,120,120,120,120,120,120,120,120,120,120,120,120,120,120,0,0,0,0,0,0,0,0,0,0,0,0,0,0,0,0,0,0,0,0,0,0,0,0,0,0,0,0,0,0,0,0,0,0,0,0,0,0,0,0,0,0,0,0,0,0,0,0,0,0,0,0,0,0,0,0,0,0,0,0,0,0,0,0,0,0,0,0,0,0,0,0,0,0,0,0,0,0,0,0,0,0,0,0,0,0,0,0,0,0,0,0,0,0,0,0,0,161,162,0,0,0,0,0,120,0,0,0,0,0,0,0,0,0,0,0,0,0,0,0,0,0,0,0,0,0,0,0,0,0,0,0,0,0,0,0,0,0,0,0,0,0,0,0,0,0,0,0,0,0,0,0,0,0,0,0,0,0,0,0,0,0,0,0,0,0,0,0,0,0,0,0,0,0,0,0,0,0,0,0,0,0,0,0,0,0,0,0,0,0,0,0,0,0,0,0,
0,0,0,0,0,0,0,0,0,0,0,0,0,0,0,0,0,0,0,0,0,0,0,0,0,0,0,0,0,120,0,0,0,0,0,0,0,0,0,0,0,0,0,0,0,0,0,0,0,0,0,0,0,0,0,0,0,0,0,0,0,0,0,0,0,0,0,0,0,0,0,0,0,0,0,0,0,0,0,0,0,0,0,0,0,0,0,0,0,0,0,0,0,0,0,0,0,0,0,0,0,0,0,0,0,0,0,0,0,0,0,0,0,0,0,0,0,0,0,0,0,0,0,0,0,0,0,0,0,0,0,0,0,0,0,0,0,0,120,120,120,120,120,0,0,0,0,0,0,120,120,120,120,120,120,120,120,120,120,120,120,120,120,120,120,120,120,120,120,120,120,120,120,120,120,120,120,120,120,120,120,120,120,120,120,120,120,120,120,120,120,120,120,120,120,120,120,120,120,120,120,120,120,120,120,120,120,120,120,120,0,0,0,0,0,0,0,0,0,0,0,0,0,0,0,0,0,0,0,0,0,0,0,0,0,0,0,0,0,0,0,0,0,0,0,0,0,0,0,0,0,0,0,0,0,0,0,0,0,0,0,0,0,0,0,0,0,0,0,0,0,0,0,0,0,0,0,0,0,120,120,0,0,0,0,0,0,0,0,0,0,120,120,120,120,120,120,120,120,120,120,120,120,0,0,0,0,0,0,0,0,0,0,0,0,0,0,0,0,0,0,0,0,0,0,0,0,0,0,0,0,0,0,0,0,0,0,0,0,0,0,0,0,0,0,0,0,0,0,0,0,0,0,0,0,0,0,0,0,0,0,0,0,0,0,0,0,0,0,0,0,0,0,0,0,0,0,0,0,0,0,0,0,0,0,0,0,0,0,0,0,0,0,0,0,0,0,0,0,0
</data>
 </layer>
 <objectgroup id="2" name="object_1">
  <object id="90" name="enemy" type="enemy" x="10400" y="224" width="32" height="32">
   <properties>
    <property name="spawn_pos" value="right_middle"/>
    <property name="subtype" value="enemy_b8"/>
   </properties>
  </object>
  <object id="91" name="event" type="event" x="12768" y="0" width="32" height="32">
   <properties>
    <property name="subtype" value="scroll_stop"/>
   </properties>
  </object>
  <object id="92" name="event" type="event" x="10304" y="0" width="32" height="32">
   <properties>
    <property name="subtype" value="bgm_fadeout"/>
   </properties>
  </object>
  <object id="93" name="event" type="event" x="10400" y="0" width="32" height="32">
   <properties>
    <property name="subtype" value="bgm_boss"/>
   </properties>
  </object>
  <object id="94" name="spawner" type="spawner" x="9312" y="0" width="32" height="32">
   <properties>
    <property name="duration" value="60"/>
    <property name="interval" value="0.5"/>
    <property name="spawn_pos" value="right_random"/>
    <property name="subtype" value="enemy_11"/>
    <property name="z" value="0"/>
   </properties>
  </object>
  <object id="95" name="item" type="item" x="9472" y="448" width="160" height="32">
   <properties>
    <property name="subtype" value="runway"/>
   </properties>
  </object>
  <object id="96" name="enemy" type="enemy" x="4768" y="256" width="32" height="32">
   <properties>
    <property name="spawn_pos" value="map"/>
    <property name="subtype" value="enemy_20"/>
   </properties>
  </object>
  <object id="98" name="enemy" type="enemy" x="4988" y="178" width="32" height="32">
   <properties>
    <property name="spawn_pos" value="map"/>
    <property name="subtype" value="enemy_20"/>
   </properties>
  </object>
  <object id="99" name="enemy" type="enemy" x="4988" y="370" width="32" height="32">
   <properties>
    <property name="spawn_pos" value="map"/>
    <property name="subtype" value="enemy_20"/>
   </properties>
  </object>
  <object id="100" name="enemy" type="enemy" x="5216" y="288" width="32" height="32">
   <properties>
    <property name="spawn_pos" value="map"/>
    <property name="subtype" value="enemy_20"/>
   </properties>
  </object>
  <object id="101" name="enemy" type="enemy" x="5408" y="160" width="32" height="32">
   <properties>
    <property name="spawn_pos" value="map"/>
    <property name="subtype" value="enemy_20"/>
   </properties>
  </object>
  <object id="102" name="enemy" type="enemy" x="5536" y="352" width="32" height="32">
   <properties>
    <property name="spawn_pos" value="map"/>
    <property name="subtype" value="enemy_20"/>
   </properties>
  </object>
  <object id="104" name="enemy" type="enemy" x="5696" y="224" width="32" height="32">
   <properties>
    <property name="spawn_pos" value="map"/>
    <property name="subtype" value="enemy_20"/>
   </properties>
  </object>
  <object id="105" name="enemy" type="enemy" x="5952" y="384" width="32" height="32">
   <properties>
    <property name="spawn_pos" value="map"/>
    <property name="subtype" value="enemy_20"/>
   </properties>
  </object>
  <object id="106" name="enemy" type="enemy" x="5984" y="160" width="32" height="32">
   <properties>
    <property name="spawn_pos" value="map"/>
    <property name="subtype" value="enemy_20"/>
   </properties>
  </object>
  <object id="107" name="enemy" type="enemy" x="6208" y="256" width="32" height="32">
   <properties>
    <property name="spawn_pos" value="map"/>
    <property name="subtype" value="enemy_20"/>
   </properties>
  </object>
  <object id="108" name="enemy" type="enemy" x="6432" y="160" width="32" height="32">
   <properties>
    <property name="spawn_pos" value="map"/>
    <property name="subtype" value="enemy_20"/>
   </properties>
  </object>
  <object id="109" name="enemy" type="enemy" x="6528" y="352" width="32" height="32">
   <properties>
    <property name="spawn_pos" value="map"/>
    <property name="subtype" value="enemy_20"/>
   </properties>
  </object>
  <object id="110" name="enemy" type="enemy" x="6720" y="224" width="32" height="32">
   <properties>
    <property name="spawn_pos" value="map"/>
    <property name="subtype" value="enemy_20"/>
   </properties>
  </object>
  <object id="111" name="spawner" type="spawner" x="7680" y="0" width="32" height="32">
   <properties>
    <property name="duration" value="21"/>
    <property name="interval" value="3"/>
    <property name="spawn_pos" value="right_random"/>
    <property name="subtype" value="enemy_11"/>
    <property name="z" value="0"/>
   </properties>
  </object>
  <object id="112" name="spawner" type="spawner" x="928" y="0" width="32" height="32">
   <properties>
    <property name="duration" value="50"/>
    <property name="interval" value="1"/>
    <property name="spawn_pos" value="right_random"/>
    <property name="subtype" value="enemy_21"/>
    <property name="z" value="0"/>
   </properties>
  </object>
  <object id="113" name="spawner" type="spawner" x="2560" y="0" width="32" height="32">
   <properties>
    <property name="duration" value="20"/>
    <property name="interval" value="3"/>
    <property name="spawn_pos" value="right_random"/>
    <property name="subtype" value="enemy_4"/>
    <property name="z" value="0"/>
   </properties>
  </object>
  <object id="114" name="enemy" type="enemy" x="7232" y="64" width="32" height="32">
   <properties>
    <property name="spawn_pos" value="map"/>
    <property name="subtype" value="enemy_20"/>
   </properties>
  </object>
  <object id="115" name="enemy" type="enemy" x="7232" y="256" width="32" height="32">
   <properties>
    <property name="spawn_pos" value="map"/>
    <property name="subtype" value="enemy_20"/>
   </properties>
  </object>
  <object id="116" name="enemy" type="enemy" x="7232" y="416" width="32" height="32">
   <properties>
    <property name="spawn_pos" value="map"/>
    <property name="subtype" value="enemy_20"/>
   </properties>
  </object>
  <object id="117" name="enemy" type="enemy" x="4128" y="96" width="32" height="32">
   <properties>
    <property name="spawn_pos" value="map"/>
    <property name="subtype" value="enemy_13"/>
   </properties>
  </object>
  <object id="118" name="enemy" type="enemy" x="4128" y="160" width="32" height="32">
   <properties>
    <property name="spawn_pos" value="map"/>
    <property name="subtype" value="enemy_13"/>
   </properties>
  </object>
  <object id="121" name="enemy" type="enemy" x="4128" y="224" width="32" height="32">
   <properties>
    <property name="spawn_pos" value="map"/>
    <property name="subtype" value="enemy_13"/>
   </properties>
  </object>
  <object id="123" name="enemy" type="enemy" x="4128" y="288" width="32" height="32">
   <properties>
    <property name="spawn_pos" value="map"/>
    <property name="subtype" value="enemy_13"/>
   </properties>
  </object>
  <object id="125" name="enemy" type="enemy" x="4128" y="352" width="32" height="32">
   <properties>
    <property name="spawn_pos" value="map"/>
    <property name="subtype" value="enemy_13"/>
   </properties>
  </object>
  <object id="127" name="enemy" type="enemy" x="4128" y="384" width="32" height="32">
   <properties>
    <property name="spawn_pos" value="map"/>
    <property name="subtype" value="enemy_13"/>
   </properties>
  </object>
  <object id="128" name="enemy" type="enemy" x="4128" y="128" width="32" height="32">
   <properties>
    <property name="spawn_pos" value="map"/>
    <property name="subtype" value="enemy_13"/>
   </properties>
  </object>
  <object id="129" name="enemy" type="enemy" x="4128" y="192" width="32" height="32">
   <properties>
    <property name="spawn_pos" value="map"/>
    <property name="subtype" value="enemy_13"/>
   </properties>
  </object>
  <object id="130" name="enemy" type="enemy" x="4128" y="256" width="32" height="32">
   <properties>
    <property name="spawn_pos" value="map"/>
    <property name="subtype" value="enemy_13"/>
   </properties>
  </object>
  <object id="131" name="enemy" type="enemy" x="4128" y="320" width="32" height="32">
   <properties>
    <property name="spawn_pos" value="map"/>
    <property name="subtype" value="enemy_13"/>
   </properties>
  </object>
  <object id="133" name="enemy" type="enemy" x="1376" y="96" width="32" height="32">
   <properties>
    <property name="spawn_pos" value="map"/>
    <property name="subtype" value="enemy_12"/>
   </properties>
  </object>
  <object id="134" name="enemy" type="enemy" x="1376" y="160" width="32" height="32">
   <properties>
    <property name="spawn_pos" value="map"/>
    <property name="subtype" value="enemy_12"/>
   </properties>
  </object>
  <object id="135" name="enemy" type="enemy" x="1376" y="224" width="32" height="32">
   <properties>
    <property name="spawn_pos" value="map"/>
    <property name="subtype" value="enemy_12"/>
   </properties>
  </object>
  <object id="136" name="enemy" type="enemy" x="1376" y="288" width="32" height="32">
   <properties>
    <property name="spawn_pos" value="map"/>
    <property name="subtype" value="enemy_12"/>
   </properties>
  </object>
  <object id="137" name="enemy" type="enemy" x="1376" y="352" width="32" height="32">
   <properties>
    <property name="spawn_pos" value="map"/>
    <property name="subtype" value="enemy_12"/>
   </properties>
  </object>
  <object id="138" name="enemy" type="enemy" x="2048" y="96" width="32" height="32">
   <properties>
    <property name="spawn_pos" value="map"/>
    <property name="subtype" value="enemy_23"/>
   </properties>
  </object>
  <object id="143" name="enemy" type="enemy" x="2016" y="128" width="32" height="32">
   <properties>
    <property name="spawn_pos" value="map"/>
    <property name="subtype" value="enemy_23"/>
   </properties>
  </object>
  <object id="145" name="enemy" type="enemy" x="1984" y="160" width="32" height="32">
   <properties>
    <property name="spawn_pos" value="map"/>
    <property name="subtype" value="enemy_23"/>
   </properties>
  </object>
  <object id="146" name="enemy" type="enemy" x="1952" y="192" width="32" height="32">
   <properties>
    <property name="spawn_pos" value="map"/>
    <property name="subtype" value="enemy_23"/>
   </properties>
  </object>
  <object id="147" name="enemy" type="enemy" x="1920" y="224" width="32" height="32">
   <properties>
    <property name="spawn_pos" value="map"/>
    <property name="subtype" value="enemy_23"/>
   </properties>
  </object>
  <object id="148" name="enemy" type="enemy" x="1952" y="256" width="32" height="32">
   <properties>
    <property name="spawn_pos" value="map"/>
    <property name="subtype" value="enemy_23"/>
   </properties>
  </object>
  <object id="149" name="enemy" type="enemy" x="1984" y="288" width="32" height="32">
   <properties>
    <property name="spawn_pos" value="map"/>
    <property name="subtype" value="enemy_23"/>
   </properties>
  </object>
  <object id="150" name="enemy" type="enemy" x="2016" y="320" width="32" height="32">
   <properties>
    <property name="spawn_pos" value="map"/>
    <property name="subtype" value="enemy_23"/>
   </properties>
  </object>
  <object id="151" name="enemy" type="enemy" x="2048" y="352" width="32" height="32">
   <properties>
    <property name="spawn_pos" value="map"/>
    <property name="subtype" value="enemy_23"/>
   </properties>
  </object>
  <object id="152" name="enemy" type="enemy" x="2720" y="64" width="32" height="32">
   <properties>
    <property name="spawn_pos" value="map"/>
    <property name="subtype" value="enemy_5"/>
   </properties>
  </object>
  <object id="153" name="enemy" type="enemy" x="2752" y="96" width="32" height="32">
   <properties>
    <property name="spawn_pos" value="map"/>
    <property name="subtype" value="enemy_5"/>
   </properties>
  </object>
  <object id="154" name="enemy" type="enemy" x="2784" y="128" width="32" height="32">
   <properties>
    <property name="spawn_pos" value="map"/>
    <property name="subtype" value="enemy_5"/>
   </properties>
  </object>
  <object id="155" name="enemy" type="enemy" x="2656" y="0" width="32" height="32">
   <properties>
    <property name="spawn_pos" value="map"/>
    <property name="subtype" value="enemy_5"/>
   </properties>
  </object>
  <object id="156" name="enemy" type="enemy" x="2688" y="32" width="32" height="32">
   <properties>
    <property name="spawn_pos" value="map"/>
    <property name="subtype" value="enemy_5"/>
   </properties>
  </object>
  <object id="157" name="enemy" type="enemy" x="2816" y="160" width="32" height="32">
   <properties>
    <property name="spawn_pos" value="map"/>
    <property name="subtype" value="enemy_5"/>
   </properties>
  </object>
  <object id="158" name="enemy" type="enemy" x="2848" y="192" width="32" height="32">
   <properties>
    <property name="spawn_pos" value="map"/>
    <property name="subtype" value="enemy_5"/>
   </properties>
  </object>
  <object id="159" name="enemy" type="enemy" x="2880" y="224" width="32" height="32">
   <properties>
    <property name="spawn_pos" value="map"/>
    <property name="subtype" value="enemy_5"/>
   </properties>
  </object>
  <object id="160" name="enemy" type="enemy" x="2880" y="256" width="32" height="32">
   <properties>
    <property name="spawn_pos" value="map"/>
    <property name="subtype" value="enemy_5"/>
   </properties>
  </object>
  <object id="161" name="enemy" type="enemy" x="2848" y="288" width="32" height="32">
   <properties>
    <property name="spawn_pos" value="map"/>
    <property name="subtype" value="enemy_5"/>
   </properties>
  </object>
  <object id="162" name="enemy" type="enemy" x="2816" y="320" width="32" height="32">
   <properties>
    <property name="spawn_pos" value="map"/>
    <property name="subtype" value="enemy_5"/>
   </properties>
  </object>
  <object id="163" name="enemy" type="enemy" x="2784" y="352" width="32" height="32">
   <properties>
    <property name="spawn_pos" value="map"/>
    <property name="subtype" value="enemy_5"/>
   </properties>
  </object>
  <object id="164" name="enemy" type="enemy" x="2752" y="384" width="32" height="32">
   <properties>
    <property name="spawn_pos" value="map"/>
    <property name="subtype" value="enemy_5"/>
   </properties>
  </object>
  <object id="165" name="enemy" type="enemy" x="2720" y="416" width="32" height="32">
   <properties>
    <property name="spawn_pos" value="map"/>
    <property name="subtype" value="enemy_5"/>
   </properties>
  </object>
  <object id="166" name="enemy" type="enemy" x="2688" y="448" width="32" height="32">
   <properties>
    <property name="spawn_pos" value="map"/>
    <property name="subtype" value="enemy_5"/>
   </properties>
  </object>
  <object id="167" name="enemy" type="enemy" x="2656" y="480" width="32" height="32">
   <properties>
    <property name="spawn_pos" value="map"/>
    <property name="subtype" value="enemy_5"/>
   </properties>
  </object>
  <object id="168" name="enemy" type="enemy" x="3392" y="224" width="32" height="32">
   <properties>
    <property name="spawn_pos" value="map"/>
    <property name="subtype" value="enemy_14"/>
   </properties>
  </object>
  <object id="169" name="enemy" type="enemy" x="3424" y="224" width="32" height="32">
   <properties>
    <property name="spawn_pos" value="map"/>
    <property name="subtype" value="enemy_14"/>
   </properties>
  </object>
  <object id="170" name="enemy" type="enemy" x="3424" y="192" width="32" height="32">
   <properties>
    <property name="spawn_pos" value="map"/>
    <property name="subtype" value="enemy_14"/>
   </properties>
  </object>
  <object id="171" name="enemy" type="enemy" x="3456" y="224" width="32" height="32">
   <properties>
    <property name="spawn_pos" value="map"/>
    <property name="subtype" value="enemy_14"/>
   </properties>
  </object>
  <object id="172" name="enemy" type="enemy" x="3424" y="256" width="32" height="32">
   <properties>
    <property name="spawn_pos" value="map"/>
    <property name="subtype" value="enemy_14"/>
   </properties>
  </object>
  <object id="173" name="enemy" type="enemy" x="3616" y="192" width="32" height="32">
   <properties>
    <property name="spawn_pos" value="map"/>
    <property name="subtype" value="enemy_14"/>
   </properties>
  </object>
  <object id="175" name="enemy" type="enemy" x="3584" y="224" width="32" height="32">
   <properties>
    <property name="spawn_pos" value="map"/>
    <property name="subtype" value="enemy_14"/>
   </properties>
  </object>
  <object id="176" name="enemy" type="enemy" x="3616" y="224" width="32" height="32">
   <properties>
    <property name="spawn_pos" value="map"/>
    <property name="subtype" value="enemy_14"/>
   </properties>
  </object>
  <object id="177" name="enemy" type="enemy" x="3648" y="224" width="32" height="32">
   <properties>
    <property name="spawn_pos" value="map"/>
    <property name="subtype" value="enemy_14"/>
   </properties>
  </object>
  <object id="178" name="enemy" type="enemy" x="3616" y="256" width="32" height="32">
   <properties>
    <property name="spawn_pos" value="map"/>
    <property name="subtype" value="enemy_14"/>
   </properties>
  </object>
  <object id="179" name="enemy" type="enemy" x="1376" y="416" width="32" height="32">
   <properties>
    <property name="spawn_pos" value="map"/>
    <property name="subtype" value="enemy_12"/>
   </properties>
  </object>
  <object id="180" name="enemy" type="enemy" x="1440" y="384" width="32" height="32">
   <properties>
    <property name="spawn_pos" value="map"/>
    <property name="subtype" value="enemy_12"/>
   </properties>
  </object>
  <object id="181" name="enemy" type="enemy" x="1376" y="32" width="32" height="32">
   <properties>
    <property name="spawn_pos" value="map"/>
    <property name="subtype" value="enemy_12"/>
   </properties>
  </object>
  <object id="182" name="enemy" type="enemy" x="1440" y="320" width="32" height="32">
   <properties>
    <property name="spawn_pos" value="map"/>
    <property name="subtype" value="enemy_12"/>
   </properties>
  </object>
  <object id="183" name="enemy" type="enemy" x="1440" y="256" width="32" height="32">
   <properties>
    <property name="spawn_pos" value="map"/>
    <property name="subtype" value="enemy_12"/>
   </properties>
  </object>
  <object id="184" name="enemy" type="enemy" x="1440" y="192" width="32" height="32">
   <properties>
    <property name="spawn_pos" value="map"/>
    <property name="subtype" value="enemy_12"/>
   </properties>
  </object>
  <object id="185" name="enemy" type="enemy" x="1440" y="128" width="32" height="32">
   <properties>
    <property name="spawn_pos" value="map"/>
    <property name="subtype" value="enemy_12"/>
   </properties>
  </object>
  <object id="186" name="enemy" type="enemy" x="1440" y="64" width="32" height="32">
   <properties>
    <property name="spawn_pos" value="map"/>
    <property name="subtype" value="enemy_12"/>
   </properties>
  </object>
  <object id="187" name="emitter" type="emitter" x="992" y="0" width="32" height="32">
   <properties>
    <property name="duration" value="30"/>
    <property name="interval" value="0.4"/>
    <property name="subtype" value="effect_drop"/>
   </properties>
  </object>
  <object id="188" name="emitter" type="emitter" x="7712" y="0" width="32" height="32">
   <properties>
    <property name="duration" value="20"/>
    <property name="interval" value="0.1"/>
    <property name="subtype" value="effect_drop"/>
   </properties>
  </object>
  <object id="189" name="emitter" type="emitter" x="4768" y="0" width="32" height="32">
   <properties>
    <property name="duration" value="30"/>
    <property name="interval" value="0.2"/>
    <property name="subtype" value="effect_drop"/>
   </properties>
  </object>
 </objectgroup>
</map>
