<?xml version="1.0" encoding="UTF-8"?>
<map version="1.10" tiledversion="1.11.2" orientation="orthogonal" renderorder="right-down" width="400" height="16" tilewidth="32" tileheight="32" infinite="0" nextlayerid="3" nextobjectid="152">
 <editorsettings>
  <export target="stage_2.json" format="json"/>
 </editorsettings>
 <tileset firstgid="1" name="bg_tileset" tilewidth="32" tileheight="32" tilecount="256" columns="16">
  <image source="../images/bg_tileset.png" trans="000000" width="512" height="512"/>
  <tile id="128">
   <properties>
    <property name="nonCollidable" type="bool" value="true"/>
   </properties>
  </tile>
 </tileset>
 <layer id="1" name="layer_1" width="400" height="16">
  <data encoding="csv">
0,0,0,0,0,0,0,0,0,0,0,0,0,0,0,0,0,0,0,0,0,0,0,0,0,0,0,0,0,0,0,0,24,24,24,24,24,24,24,24,23,23,23,23,23,23,23,24,23,23,23,22,22,21,22,22,22,23,23,23,23,23,23,23,23,23,23,23,23,22,22,22,21,22,22,22,22,23,23,23,23,24,24,24,24,24,24,24,22,24,24,24,0,0,0,0,0,0,0,0,0,0,0,0,0,0,0,0,0,0,0,0,0,0,0,0,0,0,0,0,0,0,24,24,23,23,24,24,0,0,0,0,0,0,0,0,0,0,0,0,0,0,0,0,0,0,0,0,0,0,0,0,0,0,0,0,0,0,0,0,0,0,0,0,0,0,0,0,0,0,24,24,24,24,24,24,22,22,22,22,22,22,22,22,22,24,24,24,24,24,24,0,0,0,0,0,0,24,24,24,23,23,23,23,22,22,22,23,23,23,23,24,24,24,24,24,24,24,24,24,23,24,24,24,24,24,24,0,0,0,0,0,24,24,24,24,23,23,22,22,21,20,20,21,21,22,23,24,24,24,0,0,0,0,0,0,0,24,24,24,23,23,23,24,24,24,0,0,0,0,0,0,0,0,0,0,0,0,0,0,0,0,0,0,0,0,0,0,0,0,0,0,0,0,0,0,0,0,0,0,0,0,0,0,0,0,0,0,0,0,0,0,0,0,0,0,0,24,21,21,21,24,0,0,0,0,0,0,0,0,0,0,0,0,0,0,0,0,0,0,0,0,24,23,22,23,24,0,0,0,0,0,0,0,0,0,0,0,0,0,0,0,0,0,0,0,0,0,0,0,0,0,0,0,0,0,0,0,0,0,0,0,0,24,23,24,0,0,0,0,0,0,0,0,0,0,0,0,0,0,
0,0,0,0,0,0,0,0,0,0,0,0,0,0,0,0,0,0,0,0,0,0,0,0,0,0,0,0,0,0,0,0,0,24,24,23,23,23,23,23,24,0,0,0,0,0,0,24,23,23,23,23,22,22,22,22,23,23,23,23,23,23,23,23,23,23,23,23,23,23,22,22,22,22,22,23,23,23,23,23,23,24,0,0,0,0,24,24,22,24,24,0,0,0,0,0,0,0,0,0,0,0,0,0,0,0,0,0,0,0,0,0,0,0,0,0,0,0,0,0,0,0,24,24,23,23,24,24,0,0,0,0,0,0,0,0,0,0,0,0,0,0,0,0,0,0,0,0,0,0,0,0,0,0,0,0,0,0,0,0,0,0,0,0,0,0,0,0,0,0,0,0,24,24,24,24,22,22,22,22,22,22,22,24,24,24,24,24,0,0,0,0,0,0,0,0,0,0,0,24,24,23,23,23,23,22,22,23,23,24,24,24,24,24,24,24,24,24,24,24,23,24,24,24,24,0,0,0,0,0,0,0,0,0,24,24,24,23,23,22,21,21,20,21,22,22,23,24,24,0,0,0,0,0,0,0,0,0,24,24,24,23,23,24,24,0,0,0,0,0,0,0,0,0,0,0,0,0,0,0,0,0,0,0,0,0,0,0,0,0,0,0,0,0,0,0,0,0,0,0,0,0,0,0,0,0,0,0,0,0,0,0,0,0,0,0,0,24,22,22,22,24,0,0,0,0,0,0,0,0,0,0,0,0,0,0,0,0,0,0,0,0,24,23,22,23,24,0,0,0,0,0,0,0,0,0,0,0,0,0,0,0,0,0,0,0,0,0,0,0,0,0,0,0,0,0,0,0,0,0,0,0,0,24,23,24,0,0,0,0,0,0,0,0,0,0,0,0,0,0,
0,0,0,0,0,0,0,0,0,0,0,0,0,0,0,0,0,0,0,0,0,0,0,0,0,0,0,0,0,0,0,0,0,0,0,24,24,24,24,24,0,0,0,0,0,0,0,24,23,23,23,23,23,23,23,23,23,23,23,23,23,23,23,23,23,23,23,23,23,23,23,23,23,23,23,23,23,23,23,23,24,0,0,0,0,0,0,24,23,24,0,0,0,0,0,0,0,0,0,0,0,0,0,0,0,0,0,0,0,0,0,0,0,0,0,0,0,0,0,0,0,0,0,0,24,24,24,0,0,0,0,0,0,0,0,0,0,0,0,0,0,0,0,0,0,0,0,0,0,0,0,0,0,0,0,0,0,0,0,0,0,0,0,0,0,0,0,0,0,0,0,0,0,24,24,24,23,23,23,23,23,24,24,24,24,0,0,0,0,0,0,0,0,0,0,0,0,0,0,0,0,24,24,23,23,23,23,23,24,24,24,24,24,24,24,24,24,24,24,24,23,24,24,24,0,0,0,0,0,0,0,0,0,0,0,0,24,23,23,22,22,21,21,21,22,23,23,24,0,0,0,0,0,0,0,0,0,0,0,0,24,23,23,24,0,0,0,0,0,0,0,0,0,0,0,0,0,0,0,0,0,0,0,0,0,0,0,0,0,0,0,0,0,0,0,0,0,0,0,0,0,0,0,0,0,0,0,0,0,0,0,0,0,0,0,0,0,24,23,23,23,24,0,0,0,0,0,0,0,0,0,0,0,0,0,0,0,0,0,0,0,0,24,24,23,23,24,0,0,0,0,0,0,0,0,0,0,0,0,0,0,0,0,0,0,0,0,0,0,0,0,0,0,0,0,0,0,0,0,0,0,0,0,24,24,24,0,0,0,0,0,0,0,0,0,0,0,0,0,0,
0,0,0,0,0,0,0,0,0,0,0,0,0,0,0,0,0,0,0,0,0,0,0,0,0,0,0,0,0,0,0,0,0,0,0,0,0,0,0,0,0,0,0,0,0,0,0,24,23,23,23,23,23,23,23,23,23,23,23,23,23,23,23,23,23,23,23,23,23,23,23,23,23,23,23,23,23,23,23,23,24,0,0,0,0,0,0,24,23,24,0,0,0,0,0,0,0,0,0,0,0,0,0,0,0,0,0,0,0,0,0,0,0,0,0,0,0,0,0,0,0,0,0,0,24,24,24,0,0,0,0,0,0,0,0,0,0,0,0,0,0,0,0,0,0,0,0,0,0,0,0,0,0,0,0,0,0,0,0,0,0,0,0,0,0,0,0,0,0,0,0,0,0,0,24,24,23,23,23,23,24,24,24,0,0,0,0,0,0,0,0,0,0,0,0,0,0,0,0,0,0,0,24,24,24,23,23,23,24,24,0,0,0,0,0,24,24,24,24,24,23,24,24,0,0,0,0,0,0,0,0,0,0,0,0,0,24,24,23,23,22,22,22,22,22,23,24,24,0,0,0,0,0,0,0,0,0,0,0,0,24,23,24,24,0,0,0,0,0,0,0,24,24,0,0,0,0,0,0,0,0,0,0,0,0,0,0,0,0,0,0,0,0,0,0,0,0,0,0,0,0,0,0,0,0,0,0,0,0,0,0,0,0,0,0,0,0,24,23,23,23,24,0,0,0,0,0,0,0,0,0,0,0,0,0,0,0,0,0,0,0,0,0,24,23,24,24,0,0,0,0,0,0,0,0,0,0,0,0,0,0,0,0,0,0,0,0,0,0,0,0,0,0,0,0,0,0,0,0,0,0,0,0,24,24,24,0,0,0,0,0,0,0,0,0,0,0,0,0,0,
0,0,0,0,0,0,0,0,0,0,0,0,0,0,0,0,0,0,0,0,0,0,0,0,0,0,0,0,0,0,0,0,0,0,0,0,0,0,0,0,0,0,0,0,0,0,0,0,24,24,23,23,23,23,23,23,23,23,23,23,23,23,23,23,23,23,23,23,23,23,23,23,23,23,23,23,23,23,23,24,0,0,0,0,0,0,0,24,23,24,0,0,0,0,0,0,0,0,0,0,0,0,0,0,0,0,0,0,0,0,0,0,0,0,0,0,0,0,0,0,0,0,0,24,23,23,24,0,0,0,0,0,0,0,0,0,0,0,0,0,0,0,0,0,0,0,0,0,0,0,0,0,0,0,0,0,0,0,0,0,0,0,0,0,0,0,0,0,0,0,0,0,0,0,24,24,23,23,23,24,24,0,0,0,0,0,0,0,0,0,0,0,0,0,0,0,0,0,0,0,0,0,0,24,24,23,24,24,24,0,0,0,0,0,0,0,0,24,24,24,23,24,0,0,0,0,0,0,0,0,0,0,0,0,0,0,0,24,24,23,23,22,22,22,23,23,24,0,0,0,0,0,0,0,0,0,0,0,0,0,24,23,24,0,0,0,0,0,0,0,24,24,24,24,0,0,0,0,0,0,0,0,0,0,0,0,0,0,0,0,0,0,0,0,0,0,0,0,0,0,0,0,0,0,0,0,0,0,0,0,0,0,0,0,0,0,0,0,24,24,24,0,0,0,0,0,0,0,0,0,0,0,0,0,0,0,0,0,0,0,0,0,0,24,23,24,0,0,0,0,0,0,0,0,0,0,0,0,0,0,0,0,0,0,0,0,0,0,0,0,0,0,0,0,0,0,0,0,0,0,0,0,0,24,24,24,0,0,0,0,0,0,0,0,0,0,0,0,0,0,
0,0,0,0,0,0,0,0,0,0,0,0,0,0,0,0,0,0,0,0,0,0,0,0,0,0,0,0,0,0,0,0,0,0,0,0,0,0,0,0,0,0,0,0,0,0,0,0,0,24,24,24,24,24,24,24,24,24,24,24,24,24,24,24,24,24,24,24,24,24,24,24,24,24,24,24,24,24,24,0,0,0,0,0,0,0,0,0,24,0,0,0,0,0,0,0,0,0,0,0,0,0,0,0,0,0,0,0,0,0,0,0,0,0,0,24,24,24,0,0,0,0,0,24,23,23,24,0,0,0,0,0,0,0,0,0,0,0,0,0,0,0,0,0,0,0,0,0,0,0,0,0,0,0,0,0,0,0,0,0,0,0,0,0,0,0,0,0,0,0,0,0,0,0,24,24,24,23,24,24,24,0,0,0,0,0,0,0,0,0,0,0,0,0,0,0,0,0,0,0,0,0,0,0,24,23,24,0,0,0,0,0,0,0,0,0,0,0,24,24,23,24,0,0,0,0,24,0,0,0,0,0,0,0,0,0,0,0,24,24,23,22,22,22,23,23,24,0,0,0,0,0,0,0,0,0,0,0,0,0,24,23,24,0,0,0,0,0,0,0,24,23,23,24,24,0,0,0,0,0,0,0,0,0,0,0,0,0,0,0,0,0,0,0,0,0,0,0,0,0,0,0,0,0,0,0,0,0,0,0,0,0,0,0,0,0,0,0,24,24,24,0,0,0,0,0,0,0,0,0,0,0,0,0,0,0,0,0,0,0,0,0,0,24,23,24,0,0,0,0,0,0,0,0,0,0,0,0,0,0,0,0,0,0,0,0,0,0,0,0,0,0,0,0,0,0,0,0,0,0,0,0,0,24,24,24,0,0,0,0,0,0,0,0,0,0,0,0,0,0,
0,0,0,0,0,0,0,0,0,0,0,0,0,0,0,0,0,0,0,0,0,0,0,0,0,0,0,0,0,0,0,0,0,0,0,0,0,0,0,0,0,0,0,0,0,0,0,0,0,0,0,0,0,0,0,0,0,0,0,0,0,0,0,0,0,0,0,0,0,0,0,0,0,0,0,0,0,0,0,0,0,0,0,0,0,0,0,0,0,0,0,0,0,0,0,0,0,0,0,0,0,0,0,0,0,0,0,0,0,0,0,0,0,0,24,24,23,24,24,0,0,0,0,0,24,24,24,0,0,0,0,0,0,0,0,0,0,0,0,0,0,0,0,0,0,0,0,0,0,0,0,0,0,0,0,0,0,0,0,0,0,0,0,0,0,0,0,0,0,0,0,0,0,0,0,24,24,24,24,24,0,0,0,0,0,0,0,0,0,0,0,0,0,0,0,0,0,0,0,0,0,0,0,0,24,24,24,0,0,0,0,0,0,0,0,0,0,0,0,24,23,24,0,0,0,24,24,24,0,0,0,0,0,0,0,0,0,0,0,24,23,23,22,22,23,24,24,0,0,0,0,0,0,0,0,0,0,0,0,0,24,24,24,0,0,0,0,0,0,24,24,23,23,23,24,0,0,0,0,0,0,0,0,0,0,0,0,0,0,0,0,0,0,0,0,0,0,0,0,0,0,0,0,0,0,0,0,0,0,0,0,0,0,0,0,0,0,0,0,0,0,0,0,0,0,0,0,0,0,0,0,0,0,0,0,0,0,0,0,0,0,0,0,24,24,24,0,0,0,0,0,0,0,0,0,0,0,0,0,0,0,0,0,0,0,0,0,0,0,0,0,0,0,0,0,0,0,0,0,0,0,0,0,24,23,24,0,0,0,0,0,0,0,0,0,0,0,0,0,0,
0,0,0,0,0,0,0,0,0,0,0,0,0,0,0,0,0,0,0,0,0,0,0,0,0,0,0,0,0,0,0,0,0,0,0,0,0,0,0,0,0,0,0,0,0,0,0,0,0,0,0,0,0,0,0,0,0,0,0,0,0,0,0,0,0,0,0,0,0,0,0,0,0,0,0,0,0,0,0,0,0,0,0,0,0,0,0,0,0,0,0,0,0,0,0,0,0,0,0,0,0,0,0,0,0,0,0,0,0,0,0,0,0,0,24,23,23,23,24,0,0,0,0,0,24,24,24,0,0,0,0,0,0,0,0,0,0,0,0,0,0,0,0,0,0,0,0,0,0,0,0,0,0,0,0,0,0,0,0,0,0,0,0,0,0,0,0,0,0,0,0,0,0,0,0,24,24,24,24,0,0,0,0,0,0,0,0,0,0,0,0,0,0,0,0,0,0,0,0,0,0,0,0,0,0,24,0,0,0,0,0,0,0,0,0,0,0,0,0,24,23,24,0,0,0,24,23,24,0,0,0,0,0,0,0,0,0,0,0,24,24,23,23,23,23,24,0,0,0,0,0,0,0,0,0,0,0,0,0,0,0,24,24,0,0,0,0,0,0,24,23,23,23,23,24,24,0,0,0,0,0,0,0,0,0,0,0,0,0,0,0,0,0,0,0,0,0,0,0,0,0,0,0,0,0,0,0,0,0,0,0,0,0,0,0,0,0,0,0,0,0,0,0,0,0,0,0,0,0,0,0,0,0,0,0,0,0,0,0,0,0,0,0,0,0,0,0,0,0,0,0,0,0,0,0,0,0,0,0,0,0,0,0,0,0,0,0,0,0,0,0,0,0,0,0,0,0,0,0,0,0,0,24,24,23,24,0,0,0,0,0,0,0,0,0,0,0,0,0,0,
0,0,0,0,0,0,0,0,0,0,0,0,0,0,0,0,0,0,0,0,0,0,0,0,0,0,0,0,0,0,0,0,0,0,0,0,0,0,0,0,0,0,0,0,0,0,0,0,0,0,0,0,0,0,0,0,0,0,0,0,0,0,0,0,0,0,0,0,0,0,0,0,0,0,0,0,0,0,0,0,0,0,0,0,0,0,0,0,0,0,0,0,0,0,0,0,0,0,0,0,0,0,0,0,0,0,0,0,0,0,0,0,0,0,0,24,23,24,24,0,0,0,0,24,23,23,24,0,0,0,0,0,0,0,0,0,0,0,0,0,0,0,0,0,0,0,0,0,0,0,0,0,0,0,0,0,0,0,0,0,0,0,0,0,0,0,0,0,0,0,0,0,0,0,0,0,24,24,0,0,0,0,0,0,0,0,0,0,0,0,0,0,0,0,24,24,24,24,24,0,0,0,0,0,0,0,0,0,0,0,0,0,0,0,0,0,0,0,0,24,23,24,0,0,0,24,23,24,0,0,0,0,0,0,0,0,0,0,0,0,24,24,23,23,24,24,0,0,0,0,0,0,0,0,0,0,0,0,0,0,0,0,0,0,0,0,0,0,24,24,23,22,22,23,23,24,0,0,0,0,0,0,0,0,0,0,0,0,0,0,0,0,0,0,0,0,0,0,0,0,0,0,0,0,0,0,0,0,0,0,0,0,0,0,0,0,0,0,0,0,0,0,0,0,0,0,0,0,0,0,0,0,0,0,0,0,0,0,0,0,0,0,0,0,0,0,0,0,0,0,0,0,0,0,0,0,0,0,0,0,0,0,0,0,24,24,24,24,24,24,24,0,0,0,0,0,0,0,0,0,0,0,24,24,23,24,0,0,0,0,0,0,0,0,0,0,0,0,0,0,
0,0,0,0,0,0,0,0,0,0,0,0,0,0,0,0,0,0,0,0,0,0,0,0,0,0,0,0,0,0,0,0,0,0,0,0,0,0,0,0,0,0,0,0,0,0,0,0,0,0,0,0,0,0,0,0,0,0,0,0,0,0,0,0,0,0,0,0,0,0,0,0,0,0,0,0,0,0,0,0,0,0,0,0,0,0,0,0,24,0,0,0,0,0,0,0,0,0,0,0,0,0,0,0,0,0,0,0,0,0,0,0,0,0,0,24,22,24,24,0,0,0,0,24,23,23,24,0,0,0,0,0,0,0,0,0,0,0,0,0,0,0,0,0,0,0,0,0,0,0,0,0,0,0,0,0,0,0,0,0,0,0,0,0,0,0,0,0,0,0,0,0,0,0,0,0,0,0,0,0,0,0,0,0,0,0,0,0,0,0,0,0,0,24,24,23,23,23,24,24,0,0,0,0,0,0,0,0,0,0,0,0,0,0,0,0,0,0,0,24,24,24,0,0,24,24,23,24,24,0,0,0,0,0,0,0,0,0,0,0,0,24,24,24,24,0,0,0,0,0,0,0,0,0,0,0,0,0,0,0,0,0,0,0,0,0,0,0,24,23,23,22,22,23,23,24,0,0,0,0,0,0,0,0,0,0,0,0,0,0,0,0,0,0,0,0,0,0,0,0,0,0,24,24,0,0,0,0,0,0,0,0,0,0,24,24,0,0,0,0,0,0,0,0,0,0,0,0,24,24,24,0,0,0,0,0,0,0,0,0,0,0,0,0,0,0,0,0,0,0,0,0,0,0,0,0,0,0,0,0,0,0,24,24,24,23,23,23,23,23,24,24,0,0,0,0,0,0,0,0,0,0,24,24,23,24,0,0,0,0,0,0,0,0,0,0,0,0,0,0,
0,0,0,0,0,0,0,0,0,0,0,0,0,0,0,0,0,0,0,0,0,0,0,0,0,0,0,0,0,0,0,0,0,0,0,0,0,0,0,0,0,0,0,0,0,0,0,0,0,24,24,24,24,24,24,24,24,24,24,24,24,24,24,24,24,24,24,24,24,24,24,24,24,24,24,24,24,24,0,0,0,0,0,0,0,0,0,24,23,24,0,0,0,0,0,0,0,0,0,24,24,24,24,0,0,0,0,0,0,0,0,0,0,0,24,23,22,23,24,0,0,0,0,0,24,24,0,0,0,0,0,0,0,0,0,0,0,0,0,0,0,0,24,24,24,24,24,24,24,0,0,0,0,0,0,0,0,0,0,0,0,0,0,0,0,0,24,24,24,24,24,0,0,0,0,0,0,0,0,0,0,0,0,0,0,0,0,0,0,0,0,0,24,24,23,23,23,23,23,24,0,0,0,0,0,0,0,0,0,0,0,0,24,24,24,0,0,0,0,0,24,0,0,0,24,23,23,24,24,0,0,0,0,0,0,0,0,0,0,0,0,0,0,0,0,0,0,0,0,0,0,0,0,0,0,0,0,0,0,0,0,0,0,0,0,0,0,24,24,23,22,22,22,23,23,24,24,0,0,0,0,0,0,0,0,0,0,0,0,0,0,0,0,0,0,0,0,0,0,0,0,24,24,24,24,0,0,0,0,0,0,0,0,24,24,24,0,0,0,0,0,0,0,0,0,0,0,24,24,23,24,24,0,0,0,0,0,0,0,0,0,0,0,0,0,0,0,0,0,0,0,0,0,0,0,0,0,0,0,0,24,24,24,23,23,23,23,23,23,23,23,24,24,0,0,0,0,0,0,0,0,0,24,24,23,24,0,0,0,0,0,0,0,0,0,0,0,0,0,0,
0,0,0,0,0,0,0,0,0,0,0,0,0,0,0,0,0,0,0,0,0,0,0,0,0,0,0,0,0,0,0,0,0,0,0,0,0,0,0,0,0,0,0,0,0,0,0,0,24,24,23,23,23,23,23,23,23,23,23,23,23,23,23,23,23,23,23,23,23,23,23,23,23,23,23,23,23,24,24,0,0,0,0,0,0,0,0,24,23,24,0,0,0,0,0,0,0,0,24,24,23,23,24,0,0,0,0,0,0,0,0,0,0,0,24,23,22,23,24,0,0,0,0,0,0,0,0,0,0,0,0,0,0,0,0,0,0,0,0,24,24,24,24,23,23,23,23,23,24,24,0,0,0,0,0,0,0,0,0,0,0,0,0,0,0,24,24,23,22,23,24,24,0,0,0,0,0,0,0,0,0,0,0,0,0,0,0,0,0,0,0,24,24,23,23,23,23,23,23,24,24,0,0,0,0,0,0,0,0,0,0,24,24,23,24,0,0,0,0,0,0,0,0,0,24,23,23,24,24,24,0,0,0,0,0,0,24,24,0,0,0,0,0,0,0,0,0,0,0,0,24,0,0,0,0,0,0,0,0,0,0,0,0,0,0,0,24,24,23,23,22,21,22,22,23,23,24,0,0,0,0,0,0,0,0,0,0,0,0,0,0,0,0,0,0,0,0,0,0,0,24,24,23,23,24,24,0,0,0,0,0,0,0,24,23,24,0,0,0,0,0,0,0,0,0,0,24,24,23,23,23,24,24,0,0,0,0,0,0,0,0,0,0,0,0,0,0,0,0,0,0,0,0,0,0,0,0,0,24,24,24,23,23,23,23,23,23,23,23,23,23,23,24,24,0,0,0,0,0,0,0,0,24,24,23,24,0,0,0,0,0,0,0,0,0,0,0,0,0,0,
0,0,0,0,0,0,0,0,0,0,0,0,0,0,0,0,0,0,0,0,0,0,0,0,0,0,0,0,0,0,0,0,0,0,0,0,0,0,0,0,0,0,0,0,0,0,0,24,24,23,23,23,23,23,23,23,23,23,23,23,23,23,23,23,23,23,23,23,23,23,23,23,23,23,23,23,23,23,24,24,0,0,0,0,0,0,0,24,23,24,0,0,0,0,0,0,0,24,24,23,23,23,24,24,0,0,0,0,0,0,0,0,0,0,0,24,21,24,24,0,0,0,0,0,0,0,0,0,0,0,0,0,0,0,0,0,0,24,24,24,23,23,23,23,23,23,23,23,23,24,24,24,24,0,0,129,0,0,0,0,0,0,0,0,24,24,23,23,22,23,24,24,24,0,0,0,0,0,0,0,0,0,0,0,0,0,0,0,0,24,24,24,23,23,22,22,22,22,23,23,24,24,0,0,0,0,0,0,0,0,24,24,23,23,24,24,0,0,0,0,0,0,0,0,24,23,23,24,24,24,0,0,0,0,0,24,23,23,24,0,0,0,0,0,0,0,0,0,0,24,23,24,0,0,0,0,0,0,0,0,0,0,0,0,0,24,24,23,23,22,22,21,21,22,23,23,24,24,0,0,0,0,0,0,24,24,24,24,0,0,0,0,0,0,0,0,0,0,0,24,24,23,23,23,23,24,0,0,0,0,0,0,0,24,23,24,24,0,0,0,0,0,0,0,0,24,24,23,23,22,23,23,24,24,0,0,0,0,0,0,0,0,0,0,0,0,0,0,0,0,0,0,0,0,0,0,0,24,24,23,23,23,23,23,23,22,22,22,22,23,23,23,23,24,24,24,24,24,0,0,0,24,24,24,23,24,0,0,0,0,0,0,0,0,0,0,0,0,0,0,
0,0,0,0,0,0,0,0,0,0,0,0,0,0,0,0,24,24,24,24,24,24,24,24,0,0,0,0,0,0,0,0,24,24,24,24,24,24,24,24,0,0,0,0,0,0,0,24,23,23,23,23,22,23,23,23,23,23,23,23,23,23,23,23,23,23,23,23,23,23,23,23,23,23,23,23,22,23,23,24,24,0,0,0,0,0,0,24,23,24,0,0,0,0,0,0,24,24,23,23,22,23,23,24,0,0,0,0,0,0,0,0,0,0,0,24,21,24,24,24,0,0,0,0,0,0,0,0,0,0,0,0,0,0,0,0,24,24,23,23,23,23,22,22,22,22,22,22,23,23,23,23,24,24,24,24,0,0,0,0,0,0,0,0,24,23,23,22,22,22,24,24,24,24,0,0,0,0,0,0,0,0,0,0,0,0,0,0,24,24,23,23,23,22,22,22,22,22,22,23,23,24,24,0,0,0,0,0,0,24,24,23,23,23,23,24,0,0,0,0,0,0,0,24,24,23,23,24,24,24,24,0,0,0,0,24,22,22,24,0,0,0,0,0,0,0,0,0,24,22,23,24,24,0,0,0,0,0,0,0,0,0,0,0,24,24,23,23,22,22,21,21,21,22,23,23,23,24,24,0,0,0,0,24,24,23,23,24,24,0,0,0,0,0,0,0,0,0,24,24,23,23,22,22,23,24,0,0,0,0,0,0,24,24,23,23,24,0,0,0,0,0,0,0,24,24,23,23,22,22,22,23,23,24,24,0,0,0,0,0,0,0,0,0,0,0,0,0,0,0,0,0,0,0,0,0,24,24,23,23,23,23,23,22,22,22,21,21,22,22,23,23,23,23,24,24,24,24,24,24,24,24,24,24,23,24,0,0,0,0,0,0,0,0,0,0,0,0,0,0,
0,0,0,0,0,0,0,0,24,24,24,0,0,0,0,24,23,23,23,22,23,23,23,23,24,0,0,0,0,129,0,24,24,23,22,22,22,23,23,24,24,0,0,0,0,0,0,24,23,24,23,23,22,22,23,23,23,23,23,23,23,23,23,23,23,23,23,23,23,23,23,23,23,23,23,22,22,22,23,23,24,0,0,0,0,0,24,24,23,24,0,0,0,0,0,0,24,23,23,22,22,22,23,24,24,0,0,0,0,0,0,0,0,0,24,23,21,23,24,24,0,0,0,0,0,0,0,0,0,0,0,0,0,24,24,24,24,23,23,23,23,22,22,22,22,22,22,22,22,22,22,23,23,23,23,24,24,24,0,0,0,0,0,24,24,23,22,22,21,22,24,24,24,24,24,24,0,0,0,0,0,0,0,0,0,0,0,24,24,23,23,22,22,22,21,21,21,21,22,22,23,24,24,24,24,0,0,0,24,24,23,23,22,22,23,24,24,0,0,0,0,0,0,24,23,23,22,24,24,24,24,24,0,0,24,24,22,22,23,24,0,0,0,0,0,0,0,24,22,22,23,24,24,24,0,0,0,0,0,0,0,24,24,24,24,23,23,23,22,21,20,20,21,22,23,23,23,24,24,24,0,0,24,24,24,23,23,24,24,129,0,0,0,0,0,0,24,24,24,23,23,22,22,22,23,24,24,0,0,0,0,0,24,23,21,23,24,24,0,0,0,0,0,24,24,23,23,22,22,22,22,22,23,23,24,24,0,0,0,0,0,0,0,0,0,0,0,0,0,0,0,0,0,0,24,24,24,23,23,23,23,22,22,22,21,21,21,21,21,22,22,23,23,23,23,24,24,24,24,24,24,24,24,24,23,24,0,0,0,0,0,0,0,0,0,0,0,0,0,0,
24,24,23,24,24,24,24,24,23,23,23,24,24,24,24,24,23,23,23,22,22,22,23,23,23,24,24,24,22,24,24,24,24,23,22,22,22,22,23,24,24,24,24,24,24,22,22,24,24,24,23,22,21,22,23,23,23,23,23,23,23,23,23,23,21,21,23,23,23,23,23,23,23,23,22,21,21,22,22,23,24,24,24,129,24,24,24,24,23,24,24,24,24,24,24,24,24,23,22,22,21,22,23,23,24,24,24,24,24,23,24,24,24,24,24,23,21,23,24,24,24,23,23,23,23,23,23,23,23,24,24,24,24,24,24,23,23,23,23,22,22,22,22,22,22,21,22,22,22,22,22,22,22,22,23,23,23,24,24,24,23,23,24,24,23,23,22,21,21,22,23,24,24,24,24,24,24,24,23,24,24,24,24,24,24,24,24,24,23,23,22,22,21,21,21,20,20,21,21,22,23,23,24,24,24,24,24,24,24,23,23,22,22,21,23,23,24,24,24,23,23,24,24,24,23,22,22,22,24,24,24,24,24,24,24,23,23,23,23,23,24,24,24,24,24,24,23,23,23,23,23,24,24,24,24,24,24,24,24,24,24,24,23,23,23,23,22,22,22,21,20,20,21,22,23,23,23,24,24,23,24,24,24,23,23,22,22,23,24,24,24,23,23,24,24,24,24,23,23,23,22,22,21,22,23,23,24,24,24,23,23,24,24,23,21,23,23,24,24,23,24,24,24,24,23,23,22,22,21,21,21,22,22,23,23,24,24,24,24,24,24,24,23,23,23,23,23,23,24,24,24,24,24,24,24,23,23,23,23,23,22,22,21,21,21,20,20,20,21,21,22,22,23,23,23,24,24,24,24,24,22,22,24,24,23,24,0,0,0,0,0,0,0,0,0,0,0,0,0,0
</data>
 </layer>
 <objectgroup id="2" name="object_1">
  <object id="4" name="battery" type="battery" x="1184" y="384" width="32" height="32"/>
  <object id="5" name="battery" type="battery" x="1088" y="384" width="32" height="32"/>
  <object id="6" name="battery" type="battery" x="704" y="384" width="32" height="32"/>
  <object id="7" name="battery" type="battery" x="1664" y="288" width="32" height="32"/>
  <object id="9" name="battery" type="battery" x="2368" y="288" width="32" height="32"/>
  <object id="10" name="battery" type="battery" x="2464" y="288" width="32" height="32"/>
  <object id="11" name="battery" type="battery" x="2816" y="256" width="32" height="32"/>
  <object id="12" name="battery" type="battery" x="3168" y="288" width="32" height="32"/>
  <object id="13" name="battery" type="battery" x="3264" y="288" width="32" height="32"/>
  <object id="16" name="battery" type="battery" x="4256" y="416" width="32" height="32"/>
  <object id="17" name="battery" type="battery" x="4384" y="352" width="32" height="32"/>
  <object id="18" name="battery" type="battery" x="4480" y="320" width="32" height="32"/>
  <object id="19" name="battery" type="battery" x="5376" y="288" width="32" height="32"/>
  <object id="20" name="battery" type="battery" x="5920" y="448" width="32" height="32"/>
  <object id="21" name="battery" type="battery" x="6272" y="224" width="32" height="32"/>
  <object id="22" name="battery" type="battery" x="6816" y="288" width="32" height="32"/>
  <object id="23" name="battery" type="battery" x="7232" y="128" width="32" height="32"/>
  <object id="24" name="battery" type="battery" x="8704" y="64" width="32" height="32"/>
  <object id="25" name="battery" type="battery" x="9152" y="352" width="32" height="32"/>
  <object id="26" name="battery" type="battery" x="9696" y="256" width="32" height="32"/>
  <object id="27" name="battery" type="battery" x="10080" y="256" width="32" height="32"/>
  <object id="28" name="battery" type="battery" x="10528" y="256" width="32" height="32"/>
  <object id="29" name="battery" type="battery" x="11488" y="320" width="32" height="32"/>
  <object id="30" name="battery" type="battery" x="11616" y="256" width="32" height="32"/>
  <object id="31" name="battery" type="battery" x="11872" y="256" width="32" height="32"/>
  <object id="32" name="battery" type="battery" x="11968" y="352" width="32" height="32"/>
  <object id="34" name="enemy" type="enemy" x="3584" y="480" width="32" height="32">
   <properties>
    <property name="spawn_pos" value="right_y_z"/>
    <property name="subtype" value="enemy_6"/>
    <property name="z" value="130"/>
   </properties>
  </object>
  <object id="35" name="battery" type="battery" x="1792" y="192" width="32" height="32"/>
  <object id="36" name="battery" type="battery" x="1952" y="288" width="32" height="32"/>
  <object id="37" name="battery" type="battery" x="2144" y="192" width="32" height="32"/>
  <object id="38" name="battery" type="battery" x="2240" y="288" width="32" height="32"/>
  <object id="39" name="battery" type="battery" x="2400" y="192" width="32" height="32"/>
  <object id="40" name="enemy" type="enemy" x="9248" y="160" width="32" height="32">
   <properties>
    <property name="spawn_pos" value="right_middle"/>
    <property name="subtype" value="enemy_b2"/>
   </properties>
  </object>
  <object id="41" name="event" type="event" x="12224" y="0" width="32" height="32">
   <properties>
    <property name="subtype" value="scroll_stop"/>
   </properties>
  </object>
  <object id="42" name="enemy" type="enemy" x="864" y="480" width="32" height="32">
   <properties>
    <property name="spawn_pos" value="right_y_z"/>
    <property name="subtype" value="enemy_6"/>
    <property name="z" value="300"/>
   </properties>
  </object>
  <object id="43" name="spawner" type="spawner" x="864" y="0" width="32" height="32">
   <properties>
    <property name="duration" value="30"/>
    <property name="interval" value="3"/>
    <property name="spawn_pos" value="right_middle"/>
    <property name="subtype" value="enemy_1"/>
    <property name="z" value="0"/>
   </properties>
  </object>
  <object id="44" name="spawner" type="spawner" x="896" y="0" width="32" height="32">
   <properties>
    <property name="duration" value="30"/>
    <property name="interval" value="3"/>
    <property name="spawn_pos" value="right_random"/>
    <property name="subtype" value="enemy_4"/>
    <property name="z" value="0"/>
   </properties>
  </object>
  <object id="46" name="battery" type="battery" x="8608" y="160" width="32" height="32"/>
  <object id="47" name="battery" type="battery" x="8576" y="224" width="32" height="32"/>
  <object id="48" name="battery" type="battery" x="8544" y="288" width="32" height="32"/>
  <object id="51" name="spawner" type="spawner" x="8928" y="0" width="32" height="32">
   <properties>
    <property name="duration" value="30"/>
    <property name="interval" value="3"/>
    <property name="spawn_pos" value="right_random"/>
    <property name="subtype" value="enemy_1"/>
    <property name="z" value="0"/>
   </properties>
  </object>
  <object id="53" name="spawner" type="spawner" x="8960" y="0" width="32" height="32">
   <properties>
    <property name="duration" value="30"/>
    <property name="interval" value="3"/>
    <property name="spawn_pos" value="right_random"/>
    <property name="subtype" value="enemy_4"/>
    <property name="z" value="0"/>
   </properties>
  </object>
  <object id="55" name="event" type="event" x="9152" y="0" width="32" height="32">
   <properties>
    <property name="subtype" value="bgm_fadeout"/>
   </properties>
  </object>
  <object id="56" name="event" type="event" x="9248" y="0" width="32" height="32">
   <properties>
    <property name="subtype" value="bgm_boss"/>
   </properties>
  </object>
  <object id="58" name="enemy" type="enemy" x="4960" y="224" width="32" height="32">
   <properties>
    <property name="spawn_pos" value="map"/>
    <property name="subtype" value="enemy_19a"/>
   </properties>
  </object>
  <object id="59" name="enemy" type="enemy" x="5536" y="128" width="32" height="32">
   <properties>
    <property name="spawn_pos" value="map"/>
    <property name="subtype" value="enemy_19a"/>
   </properties>
  </object>
  <object id="60" name="battery" type="battery" x="11008" y="224" width="32" height="32"/>
  <object id="61" name="battery" type="battery" x="10208" y="192" width="32" height="32"/>
  <object id="66" name="enemy" type="enemy" x="5824" y="320" width="32" height="32">
   <properties>
    <property name="spawn_pos" value="map"/>
    <property name="subtype" value="enemy_19a"/>
   </properties>
  </object>
  <object id="67" name="enemy" type="enemy" x="6272" y="160" width="32" height="32">
   <properties>
    <property name="spawn_pos" value="map"/>
    <property name="subtype" value="enemy_19a"/>
   </properties>
  </object>
  <object id="68" name="enemy" type="enemy" x="6624" y="96" width="32" height="32">
   <properties>
    <property name="spawn_pos" value="map"/>
    <property name="subtype" value="enemy_19a"/>
   </properties>
  </object>
  <object id="70" name="enemy" type="enemy" x="7040" y="160" width="32" height="32">
   <properties>
    <property name="spawn_pos" value="map"/>
    <property name="subtype" value="enemy_19a"/>
   </properties>
  </object>
  <object id="71" name="enemy" type="enemy" x="7456" y="448" width="32" height="32">
   <properties>
    <property name="spawn_pos" value="map"/>
    <property name="subtype" value="enemy_19a"/>
   </properties>
  </object>
  <object id="72" name="enemy" type="enemy" x="8128" y="320" width="32" height="32">
   <properties>
    <property name="spawn_pos" value="map"/>
    <property name="subtype" value="enemy_19a"/>
   </properties>
  </object>
  <object id="73" name="enemy" type="enemy" x="8288" y="96" width="32" height="32">
   <properties>
    <property name="spawn_pos" value="map"/>
    <property name="subtype" value="enemy_19a"/>
   </properties>
  </object>
  <object id="75" name="battery" type="battery" x="3936" y="96" width="32" height="32"/>
  <object id="77" name="battery" type="battery" x="3936" y="224" width="32" height="32"/>
  <object id="81" name="battery" type="battery" x="3648" y="288" width="32" height="32"/>
  <object id="82" name="battery" type="battery" x="3648" y="416" width="32" height="32"/>
  <object id="85" name="enemy" type="enemy" x="7744" y="384" width="32" height="32">
   <properties>
    <property name="spawn_pos" value="map"/>
    <property name="subtype" value="enemy_19a"/>
   </properties>
  </object>
  <object id="87" name="enemy" type="enemy" x="8544" y="0" width="32" height="32">
   <properties>
    <property name="spawn_pos" value="map"/>
    <property name="subtype" value="enemy_19a"/>
   </properties>
  </object>
  <object id="88" name="battery" type="battery" x="5696" y="448" width="32" height="32"/>
  <object id="89" name="battery" type="battery" x="6080" y="352" width="32" height="32"/>
  <object id="90" name="enemy" type="enemy" x="5440" y="288" width="32" height="32">
   <properties>
    <property name="spawn_pos" value="map"/>
    <property name="subtype" value="enemy_19a"/>
   </properties>
  </object>
  <object id="91" name="effect" type="effect" x="1024" y="384" width="32" height="32">
   <properties>
    <property name="spawn_pos" value="map"/>
    <property name="subtype" value="effect_flame"/>
   </properties>
  </object>
  <object id="92" name="effect" type="effect" x="1248" y="384" width="32" height="32">
   <properties>
    <property name="spawn_pos" value="map"/>
    <property name="subtype" value="effect_flame"/>
   </properties>
  </object>
  <object id="93" name="effect" type="effect" x="1504" y="352" width="32" height="32">
   <properties>
    <property name="spawn_pos" value="map"/>
    <property name="subtype" value="effect_flame"/>
   </properties>
  </object>
  <object id="94" name="effect" type="effect" x="2560" y="384" width="32" height="32">
   <properties>
    <property name="spawn_pos" value="map"/>
    <property name="subtype" value="effect_flame"/>
   </properties>
  </object>
  <object id="95" name="effect" type="effect" x="3072" y="384" width="32" height="32">
   <properties>
    <property name="spawn_pos" value="map"/>
    <property name="subtype" value="effect_flame"/>
   </properties>
  </object>
  <object id="97" name="effect" type="effect" x="3328" y="416" width="32" height="32">
   <properties>
    <property name="spawn_pos" value="map"/>
    <property name="subtype" value="effect_flame"/>
   </properties>
  </object>
  <object id="98" name="effect" type="effect" x="3712" y="128" width="32" height="32">
   <properties>
    <property name="spawn_pos" value="map"/>
    <property name="subtype" value="effect_flame"/>
   </properties>
  </object>
  <object id="99" name="effect" type="effect" x="4576" y="288" width="32" height="32">
   <properties>
    <property name="spawn_pos" value="map"/>
    <property name="subtype" value="effect_flame"/>
   </properties>
  </object>
  <object id="100" name="effect" type="effect" x="4608" y="288" width="32" height="32">
   <properties>
    <property name="spawn_pos" value="map"/>
    <property name="subtype" value="effect_flame"/>
   </properties>
  </object>
  <object id="101" name="effect" type="effect" x="4640" y="288" width="32" height="32">
   <properties>
    <property name="spawn_pos" value="map"/>
    <property name="subtype" value="effect_flame"/>
   </properties>
  </object>
  <object id="102" name="effect" type="effect" x="4672" y="288" width="32" height="32">
   <properties>
    <property name="spawn_pos" value="map"/>
    <property name="subtype" value="effect_flame"/>
   </properties>
  </object>
  <object id="103" name="effect" type="effect" x="4704" y="288" width="32" height="32">
   <properties>
    <property name="spawn_pos" value="map"/>
    <property name="subtype" value="effect_flame"/>
   </properties>
  </object>
  <object id="104" name="effect" type="effect" x="8000" y="320" width="32" height="32">
   <properties>
    <property name="spawn_pos" value="map"/>
    <property name="subtype" value="effect_flame"/>
   </properties>
  </object>
  <object id="105" name="effect" type="effect" x="8800" y="192" width="32" height="32">
   <properties>
    <property name="spawn_pos" value="map"/>
    <property name="subtype" value="effect_flame"/>
   </properties>
  </object>
  <object id="106" name="effect" type="effect" x="8832" y="288" width="32" height="32">
   <properties>
    <property name="spawn_pos" value="map"/>
    <property name="subtype" value="effect_flame"/>
   </properties>
  </object>
  <object id="107" name="effect" type="effect" x="8864" y="352" width="32" height="32">
   <properties>
    <property name="spawn_pos" value="map"/>
    <property name="subtype" value="effect_flame"/>
   </properties>
  </object>
  <object id="108" name="effect" type="effect" x="8928" y="416" width="32" height="32">
   <properties>
    <property name="spawn_pos" value="map"/>
    <property name="subtype" value="effect_flame"/>
   </properties>
  </object>
  <object id="109" name="effect" type="effect" x="9024" y="416" width="32" height="32">
   <properties>
    <property name="spawn_pos" value="map"/>
    <property name="subtype" value="effect_flame"/>
   </properties>
  </object>
  <object id="110" name="effect" type="effect" x="9088" y="352" width="32" height="32">
   <properties>
    <property name="spawn_pos" value="map"/>
    <property name="subtype" value="effect_flame"/>
   </properties>
  </object>
  <object id="111" name="effect" type="effect" x="9216" y="384" width="32" height="32">
   <properties>
    <property name="spawn_pos" value="map"/>
    <property name="subtype" value="effect_flame"/>
   </properties>
  </object>
  <object id="112" name="effect" type="effect" x="9312" y="448" width="32" height="32">
   <properties>
    <property name="spawn_pos" value="map"/>
    <property name="subtype" value="effect_flame"/>
   </properties>
  </object>
  <object id="113" name="effect" type="effect" x="9344" y="448" width="32" height="32">
   <properties>
    <property name="spawn_pos" value="map"/>
    <property name="subtype" value="effect_flame"/>
   </properties>
  </object>
  <object id="114" name="effect" type="effect" x="9376" y="448" width="32" height="32">
   <properties>
    <property name="spawn_pos" value="map"/>
    <property name="subtype" value="effect_flame"/>
   </properties>
  </object>
  <object id="115" name="effect" type="effect" x="9408" y="448" width="32" height="32">
   <properties>
    <property name="spawn_pos" value="map"/>
    <property name="subtype" value="effect_flame"/>
   </properties>
  </object>
  <object id="116" name="effect" type="effect" x="9472" y="416" width="32" height="32">
   <properties>
    <property name="spawn_pos" value="map"/>
    <property name="subtype" value="effect_flame"/>
   </properties>
  </object>
  <object id="117" name="effect" type="effect" x="9536" y="384" width="32" height="32">
   <properties>
    <property name="spawn_pos" value="map"/>
    <property name="subtype" value="effect_flame"/>
   </properties>
  </object>
  <object id="118" name="effect" type="effect" x="9600" y="320" width="32" height="32">
   <properties>
    <property name="spawn_pos" value="map"/>
    <property name="subtype" value="effect_flame"/>
   </properties>
  </object>
  <object id="119" name="effect" type="effect" x="9760" y="320" width="32" height="32">
   <properties>
    <property name="spawn_pos" value="map"/>
    <property name="subtype" value="effect_flame"/>
   </properties>
  </object>
  <object id="120" name="effect" type="effect" x="9792" y="416" width="32" height="32">
   <properties>
    <property name="spawn_pos" value="map"/>
    <property name="subtype" value="effect_flame"/>
   </properties>
  </object>
  <object id="121" name="effect" type="effect" x="9856" y="448" width="32" height="32">
   <properties>
    <property name="spawn_pos" value="map"/>
    <property name="subtype" value="effect_flame"/>
   </properties>
  </object>
  <object id="122" name="effect" type="effect" x="9888" y="448" width="32" height="32">
   <properties>
    <property name="spawn_pos" value="map"/>
    <property name="subtype" value="effect_flame"/>
   </properties>
  </object>
  <object id="123" name="effect" type="effect" x="9920" y="448" width="32" height="32">
   <properties>
    <property name="spawn_pos" value="map"/>
    <property name="subtype" value="effect_flame"/>
   </properties>
  </object>
  <object id="124" name="effect" type="effect" x="9984" y="384" width="32" height="32">
   <properties>
    <property name="spawn_pos" value="map"/>
    <property name="subtype" value="effect_flame"/>
   </properties>
  </object>
  <object id="125" name="effect" type="effect" x="10024" y="293.333" width="32" height="32">
   <properties>
    <property name="spawn_pos" value="map"/>
    <property name="subtype" value="effect_flame"/>
   </properties>
  </object>
  <object id="126" name="effect" type="effect" x="10112" y="352" width="32" height="32">
   <properties>
    <property name="spawn_pos" value="map"/>
    <property name="subtype" value="effect_flame"/>
   </properties>
  </object>
  <object id="127" name="effect" type="effect" x="10208" y="448" width="32" height="32">
   <properties>
    <property name="spawn_pos" value="map"/>
    <property name="subtype" value="effect_flame"/>
   </properties>
  </object>
  <object id="128" name="effect" type="effect" x="10240" y="448" width="32" height="32">
   <properties>
    <property name="spawn_pos" value="map"/>
    <property name="subtype" value="effect_flame"/>
   </properties>
  </object>
  <object id="129" name="effect" type="effect" x="10272" y="448" width="32" height="32">
   <properties>
    <property name="spawn_pos" value="map"/>
    <property name="subtype" value="effect_flame"/>
   </properties>
  </object>
  <object id="130" name="effect" type="effect" x="10336" y="416" width="32" height="32">
   <properties>
    <property name="spawn_pos" value="map"/>
    <property name="subtype" value="effect_flame"/>
   </properties>
  </object>
  <object id="131" name="effect" type="effect" x="10400" y="352" width="32" height="32">
   <properties>
    <property name="spawn_pos" value="map"/>
    <property name="subtype" value="effect_flame"/>
   </properties>
  </object>
  <object id="132" name="effect" type="effect" x="10464" y="288" width="32" height="32">
   <properties>
    <property name="spawn_pos" value="map"/>
    <property name="subtype" value="effect_flame"/>
   </properties>
  </object>
  <object id="133" name="effect" type="effect" x="10592" y="288" width="32" height="32">
   <properties>
    <property name="spawn_pos" value="map"/>
    <property name="subtype" value="effect_flame"/>
   </properties>
  </object>
  <object id="134" name="effect" type="effect" x="10656" y="352" width="32" height="32">
   <properties>
    <property name="spawn_pos" value="map"/>
    <property name="subtype" value="effect_flame"/>
   </properties>
  </object>
  <object id="135" name="effect" type="effect" x="10720" y="416" width="32" height="32">
   <properties>
    <property name="spawn_pos" value="map"/>
    <property name="subtype" value="effect_flame"/>
   </properties>
  </object>
  <object id="136" name="effect" type="effect" x="10816" y="448" width="32" height="32">
   <properties>
    <property name="spawn_pos" value="map"/>
    <property name="subtype" value="effect_flame"/>
   </properties>
  </object>
  <object id="137" name="effect" type="effect" x="10880" y="448" width="32" height="32">
   <properties>
    <property name="spawn_pos" value="map"/>
    <property name="subtype" value="effect_flame"/>
   </properties>
  </object>
  <object id="138" name="effect" type="effect" x="10944" y="448" width="32" height="32">
   <properties>
    <property name="spawn_pos" value="map"/>
    <property name="subtype" value="effect_flame"/>
   </properties>
  </object>
  <object id="139" name="effect" type="effect" x="11008" y="448" width="32" height="32">
   <properties>
    <property name="spawn_pos" value="map"/>
    <property name="subtype" value="effect_flame"/>
   </properties>
  </object>
  <object id="140" name="effect" type="effect" x="11072" y="448" width="32" height="32">
   <properties>
    <property name="spawn_pos" value="map"/>
    <property name="subtype" value="effect_flame"/>
   </properties>
  </object>
  <object id="141" name="effect" type="effect" x="11136" y="448" width="32" height="32">
   <properties>
    <property name="spawn_pos" value="map"/>
    <property name="subtype" value="effect_flame"/>
   </properties>
  </object>
  <object id="142" name="effect" type="effect" x="11200" y="448" width="32" height="32">
   <properties>
    <property name="spawn_pos" value="map"/>
    <property name="subtype" value="effect_flame"/>
   </properties>
  </object>
  <object id="143" name="effect" type="effect" x="11264" y="448" width="32" height="32">
   <properties>
    <property name="spawn_pos" value="map"/>
    <property name="subtype" value="effect_flame"/>
   </properties>
  </object>
  <object id="144" name="effect" type="effect" x="11360" y="416" width="32" height="32">
   <properties>
    <property name="spawn_pos" value="map"/>
    <property name="subtype" value="effect_flame"/>
   </properties>
  </object>
  <object id="145" name="effect" type="effect" x="11424" y="352" width="32" height="32">
   <properties>
    <property name="spawn_pos" value="map"/>
    <property name="subtype" value="effect_flame"/>
   </properties>
  </object>
  <object id="146" name="effect" type="effect" x="11712" y="224" width="32" height="32">
   <properties>
    <property name="spawn_pos" value="map"/>
    <property name="subtype" value="effect_flame"/>
   </properties>
  </object>
  <object id="147" name="effect" type="effect" x="11744" y="224" width="32" height="32">
   <properties>
    <property name="spawn_pos" value="map"/>
    <property name="subtype" value="effect_flame"/>
   </properties>
  </object>
  <object id="148" name="effect" type="effect" x="11776" y="224" width="32" height="32">
   <properties>
    <property name="spawn_pos" value="map"/>
    <property name="subtype" value="effect_flame"/>
   </properties>
  </object>
  <object id="149" name="effect" type="effect" x="12128" y="384" width="32" height="32">
   <properties>
    <property name="spawn_pos" value="map"/>
    <property name="subtype" value="effect_flame"/>
   </properties>
  </object>
  <object id="150" name="effect" type="effect" x="12032" y="352" width="32" height="32">
   <properties>
    <property name="spawn_pos" value="map"/>
    <property name="subtype" value="effect_flame"/>
   </properties>
  </object>
  <object id="151" name="effect" type="effect" x="12224" y="192" width="32" height="32">
   <properties>
    <property name="spawn_pos" value="map"/>
    <property name="subtype" value="effect_flame"/>
   </properties>
  </object>
 </objectgroup>
</map>
